;FLAVOR:Marlin
;TIME:3712
;Filament used: 6.55251m
;Layer height: 0.32
;MINX:37
;MINY:75
;MINZ:0.32
;MAXX:183
;MAXY:145
;MAXZ:13.12
;Generated with Cura_SteamEngine 4.13.1
M140 S70
M105
M190 S70
M104 S240
M105
M109 S240
M82 ;absolute extrusion mode
; Ender 3 Custom Start G-code
G92 E0 ; Reset Extruder
G28 ; Home all axes
G29 ; Auto bed-level (BL-Touch)
G1 Z2.0 F3000 ; Move Z Axis up little to prevent scratching of Heat Bed
G1 X0.1 Y20 Z0.3 F5000.0 ; Move to start position
G1 X0.1 Y200.0 Z0.3 F1500.0 E15 ; Draw the first line
G1 X0.4 Y200.0 Z0.3 F5000.0 ; Move to side a little
G1 X0.4 Y20 Z0.3 F1500.0 E30 ; Draw the second line
G92 E0 ; Reset Extruder
G1 Z2.0 F3000 ; Move Z Axis up little to prevent scratching of Heat Bed
G1 X5 Y20 Z0.3 F5000.0 ; Move over to prevent blob squish
G92 E0
G92 E0
G1 F1500 E-1.7
;LAYER_COUNT:41
;LAYER:0
M107
G0 F6000 X43.301 Y76.454 Z0.32
;TYPE:SKIRT
G1 F1500 E0
G1 F900 X44.181 Y76.023 E0.10429
G1 X45.093 Y75.666 E0.20853
G1 X46.031 Y75.384 E0.31278
G1 X46.989 Y75.18 E0.41703
G1 X47.961 Y75.055 E0.52133
G1 X48.673 Y75.014 E0.59723
G1 X48.994 Y75.005 E0.63141
G1 X49.33 Y75 E0.66718
G1 X170.293 Y75 E13.54156
G1 X171.163 Y75.011 E13.63417
G1 X172.141 Y75.065 E13.73842
G1 X173.111 Y75.199 E13.84264
G1 X174.068 Y75.411 E13.94696
G1 X175.004 Y75.701 E14.05126
G1 X175.913 Y76.066 E14.15551
G1 X176.789 Y76.504 E14.25975
G1 X177.627 Y77.012 E14.36405
G1 X178.42 Y77.586 E14.46824
G1 X179.164 Y78.223 E14.57248
G1 X179.853 Y78.919 E14.67672
G1 X180.484 Y79.669 E14.78104
G1 X181.051 Y80.468 E14.88531
G1 X181.551 Y81.31 E14.98954
G1 X181.981 Y82.19 E15.09378
G1 X182.337 Y83.103 E15.19808
G1 X182.618 Y84.041 E15.3023
G1 X182.821 Y85 E15.40663
G1 X182.946 Y85.971 E15.51083
G1 X182.986 Y86.673 E15.58567
G1 X182.995 Y86.993 E15.61974
G1 X183 Y87.33 E15.65561
G1 X182.999 Y132.413 E20.4539
G1 X182.99 Y133.14 E20.53128
G1 X182.938 Y134.118 E20.63552
G1 X182.806 Y135.088 E20.73971
G1 X182.596 Y136.045 E20.84399
G1 X182.308 Y136.982 E20.94832
G1 X181.945 Y137.891 E21.0525
G1 X181.509 Y138.768 E21.15674
G1 X181.002 Y139.607 E21.26107
G1 X180.429 Y140.402 E21.36538
G1 X179.794 Y141.147 E21.46956
G1 X179.099 Y141.838 E21.57387
G1 X178.35 Y142.469 E21.67811
G1 X177.553 Y143.038 E21.78234
G1 X176.711 Y143.54 E21.88667
G1 X175.832 Y143.971 E21.99087
G1 X174.92 Y144.329 E22.09514
G1 X173.982 Y144.612 E22.19942
G1 X173.024 Y144.817 E22.30369
G1 X172.053 Y144.944 E22.40792
G1 X171.327 Y144.986 E22.48532
G1 X171.006 Y144.995 E22.51949
G1 X170.67 Y145 E22.55526
G1 X49.552 Y144.999 E35.44614
G1 X48.854 Y144.99 E35.52044
G1 X47.876 Y144.937 E35.62468
G1 X46.905 Y144.805 E35.72898
G1 X45.949 Y144.594 E35.83318
G1 X45.013 Y144.306 E35.93741
G1 X44.103 Y143.942 E36.04172
G1 X43.226 Y143.506 E36.14596
G1 X42.388 Y142.999 E36.25021
G1 X41.594 Y142.426 E36.35442
G1 X40.849 Y141.789 E36.45875
G1 X40.158 Y141.094 E36.56306
G1 X39.527 Y140.346 E36.66721
G1 X38.959 Y139.548 E36.77146
G1 X38.457 Y138.706 E36.8758
G1 X38.026 Y137.826 E36.98009
G1 X37.668 Y136.914 E37.08436
G1 X37.386 Y135.976 E37.18861
G1 X37.182 Y135.018 E37.29286
G1 X37.056 Y134.047 E37.39707
G1 X37.013 Y133.315 E37.47512
G1 X37.004 Y132.982 E37.51057
G1 X37 Y132.658 E37.54506
G1 X37.001 Y87.512 E42.35006
G1 X37.01 Y86.847 E42.42084
G1 X37.063 Y85.868 E42.52519
G1 X37.196 Y84.898 E42.62939
G1 X37.408 Y83.941 E42.73372
G1 X37.697 Y83.005 E42.83798
G1 X38.061 Y82.096 E42.9422
G1 X38.498 Y81.219 E43.04648
G1 X39.005 Y80.381 E43.15073
G1 X39.579 Y79.588 E43.25492
G1 X40.216 Y78.843 E43.35924
G1 X40.911 Y78.153 E43.46348
G1 X41.661 Y77.522 E43.5678
G1 X42.459 Y76.954 E43.67205
G1 X43.301 Y76.454 E43.77627
G0 F6000 X44.052 Y76.966
G1 F900 X44.918 Y76.583 E43.87706
G1 X45.812 Y76.275 E43.97769
G1 X46.73 Y76.043 E44.07847
G1 X47.664 Y75.89 E44.1792
G1 X48.695 Y75.813 E44.28924
G1 X49.016 Y75.804 E44.32342
G1 X49.33 Y75.8 E44.35684
G1 X170.293 Y75.8 E57.23123
G1 X171.151 Y75.811 E57.32256
G1 X172.096 Y75.865 E57.4233
G1 X173.033 Y75.998 E57.52403
G1 X173.956 Y76.209 E57.6248
G1 X174.857 Y76.498 E57.7255
G1 X175.73 Y76.862 E57.82617
G1 X176.57 Y77.299 E57.92695
G1 X177.37 Y77.804 E58.02764
G1 X178.125 Y78.376 E58.12846
G1 X178.828 Y79.009 E58.22914
G1 X179.475 Y79.699 E58.32981
G1 X180.062 Y80.441 E58.43051
G1 X180.585 Y81.23 E58.53126
G1 X181.038 Y82.061 E58.63199
G1 X181.42 Y82.927 E58.73273
G1 X181.728 Y83.822 E58.83347
G1 X181.958 Y84.74 E58.9342
G1 X182.111 Y85.674 E59.03493
G1 X182.187 Y86.695 E59.1439
G1 X182.196 Y87.015 E59.17797
G1 X182.2 Y87.33 E59.2115
G1 X182.199 Y132.403 E64.00873
G1 X182.19 Y133.13 E64.08611
G1 X182.138 Y134.075 E64.18684
G1 X182.007 Y135.012 E64.28754
G1 X181.797 Y135.935 E64.38829
G1 X181.51 Y136.836 E64.48893
G1 X181.148 Y137.711 E64.58971
G1 X180.713 Y138.551 E64.69039
G1 X180.209 Y139.352 E64.79112
G1 X179.639 Y140.108 E64.89189
G1 X179.008 Y140.812 E64.99251
G1 X178.319 Y141.461 E65.09325
G1 X177.577 Y142.05 E65.19408
G1 X176.789 Y142.573 E65.29474
G1 X175.96 Y143.029 E65.39544
G1 X175.094 Y143.412 E65.49622
G1 X174.2 Y143.721 E65.5969
G1 X173.283 Y143.954 E65.6976
G1 X172.349 Y144.108 E65.79835
G1 X171.305 Y144.187 E65.90978
G1 X170.984 Y144.196 E65.94396
G1 X170.67 Y144.2 E65.97738
G1 X49.563 Y144.199 E78.86709
G1 X48.865 Y144.19 E78.94139
G1 X47.92 Y144.138 E79.04212
G1 X46.983 Y144.006 E79.14283
G1 X46.06 Y143.796 E79.24358
G1 X45.158 Y143.508 E79.34436
G1 X44.284 Y143.146 E79.44504
G1 X43.444 Y142.71 E79.54577
G1 X42.643 Y142.206 E79.64649
G1 X41.888 Y141.636 E79.74718
G1 X41.183 Y141.004 E79.84795
G1 X40.535 Y140.314 E79.9487
G1 X39.947 Y139.573 E80.04938
G1 X39.424 Y138.784 E80.15013
G1 X38.969 Y137.954 E80.25087
G1 X38.586 Y137.089 E80.35155
G1 X38.277 Y136.194 E80.45233
G1 X38.045 Y135.277 E80.553
G1 X37.891 Y134.343 E80.65375
G1 X37.813 Y133.294 E80.76571
G1 X37.804 Y132.961 E80.80116
G1 X37.8 Y132.658 E80.83341
G1 X37.801 Y87.522 E85.63735
G1 X37.81 Y86.857 E85.70813
G1 X37.863 Y85.913 E85.80876
G1 X37.995 Y84.975 E85.90958
G1 X38.206 Y84.053 E86.01025
G1 X38.494 Y83.152 E86.11092
G1 X38.857 Y82.278 E86.21165
G1 X39.293 Y81.437 E86.31247
G1 X39.798 Y80.637 E86.41316
G1 X40.369 Y79.882 E86.51391
G1 X41.001 Y79.178 E86.61461
G1 X41.691 Y78.53 E86.71535
G1 X42.433 Y77.943 E86.81605
G1 X43.222 Y77.42 E86.9168
G1 X44.052 Y76.966 E87.01749
G0 F6000 X43.98 Y77.906
G1 F900 X44.797 Y77.5 E87.11459
G1 X45.646 Y77.168 E87.21161
G1 X46.521 Y76.911 E87.30868
G1 X47.415 Y76.732 E87.40571
G1 X48.718 Y76.613 E87.54497
G1 X49.039 Y76.604 E87.57915
G1 X49.33 Y76.6 E87.61013
G1 X170.293 Y76.6 E100.48451
G1 X171.14 Y76.611 E100.57467
G1 X172.05 Y76.664 E100.67169
G1 X172.953 Y76.797 E100.76883
G1 X173.84 Y77.008 E100.86587
G1 X174.705 Y77.296 E100.9629
G1 X175.542 Y77.658 E101.05996
G1 X176.343 Y78.093 E101.15698
G1 X177.104 Y78.596 E101.25406
G1 X177.817 Y79.164 E101.35109
G1 X178.479 Y79.792 E101.4482
G1 X179.082 Y80.476 E101.54525
G1 X179.623 Y81.21 E101.6423
G1 X180.098 Y81.988 E101.73932
G1 X180.503 Y82.805 E101.83637
G1 X180.835 Y83.655 E101.9335
G1 X181.091 Y84.53 E102.03053
G1 X181.269 Y85.424 E102.12755
G1 X181.387 Y86.718 E102.26584
G1 X181.396 Y87.038 E102.29992
G1 X181.4 Y87.33 E102.331
G1 X181.399 Y132.393 E107.12716
G1 X181.39 Y133.12 E107.20454
G1 X181.339 Y134.03 E107.30155
G1 X181.208 Y134.933 E107.39866
G1 X180.999 Y135.82 E107.49565
G1 X180.712 Y136.686 E107.59275
G1 X180.351 Y137.523 E107.68977
G1 X179.918 Y138.326 E107.78687
G1 X179.417 Y139.088 E107.88393
G1 X178.85 Y139.802 E107.98097
G1 X178.223 Y140.464 E108.07801
G1 X177.541 Y141.069 E108.17505
G1 X176.808 Y141.612 E108.27214
G1 X176.03 Y142.088 E108.36921
G1 X175.214 Y142.495 E108.46626
G1 X174.365 Y142.828 E108.56332
G1 X173.491 Y143.086 E108.66031
G1 X172.597 Y143.266 E108.75737
G1 X171.282 Y143.387 E108.89792
G1 X170.961 Y143.396 E108.9321
G1 X170.67 Y143.4 E108.96308
G1 X49.573 Y143.399 E121.85173
G1 X48.875 Y143.39 E121.92602
G1 X47.964 Y143.338 E122.02314
G1 X47.062 Y143.207 E122.12015
G1 X46.175 Y142.997 E122.21716
G1 X45.309 Y142.711 E122.31423
G1 X44.472 Y142.349 E122.41129
G1 X43.669 Y141.916 E122.50839
G1 X42.908 Y141.414 E122.60542
G1 X42.194 Y140.847 E122.70246
G1 X41.532 Y140.22 E122.7995
G1 X40.927 Y139.537 E122.89661
G1 X40.385 Y138.804 E122.99364
G1 X39.909 Y138.026 E123.09071
G1 X39.503 Y137.209 E123.18781
G1 X39.17 Y136.36 E123.28488
G1 X38.913 Y135.485 E123.38194
G1 X38.733 Y134.591 E123.479
G1 X38.613 Y133.272 E123.61996
G1 X38.604 Y132.939 E123.65542
G1 X38.6 Y132.658 E123.68533
G1 X38.601 Y87.533 E128.48809
G1 X38.61 Y86.868 E128.55888
G1 X38.662 Y85.958 E128.65589
G1 X38.794 Y85.056 E128.75291
G1 X39.005 Y84.168 E128.85006
G1 X39.292 Y83.303 E128.94706
G1 X39.654 Y82.466 E129.04411
G1 X40.088 Y81.664 E129.14117
G1 X40.59 Y80.903 E129.2382
G1 X41.158 Y80.189 E129.33531
G1 X41.785 Y79.527 E129.43235
G1 X42.468 Y78.923 E129.52939
G1 X43.202 Y78.381 E129.6265
G1 X43.98 Y77.906 E129.72352
G1 F1500 E128.02352
;MESH:LateralWall.stl
G0 F6000 X49.814 Y86.335
G0 X49.814 Y87.814
G0 X51.407 Y126.813
G0 X56.817 Y123.589
G0 X59.023 Y129.648
G0 X58.254 Y130.605
G0 X161.757 Y130.603
G0 X162.785 Y129.903
;TYPE:WALL-INNER
G1 F1500 E129.72352
G1 F900 X163.155 Y130.128 E129.76961
G1 X163.565 Y130.3 E129.81693
G1 X163.995 Y130.407 E129.86409
G1 X164.431 Y130.451 E129.91073
G1 X164.87 Y130.429 E129.95752
G1 X165.305 Y130.341 E130.00475
G1 X165.721 Y130.187 E130.05196
G1 X166.104 Y129.979 E130.09835
G1 X166.456 Y129.711 E130.14544
G1 X166.762 Y129.397 E130.1921
G1 X167.021 Y129.036 E130.23939
G1 X167.221 Y128.646 E130.28604
G1 X167.362 Y128.228 E130.33299
G1 X167.437 Y127.79 E130.38029
G1 X167.449 Y127.352 E130.42692
G1 X167.393 Y126.914 E130.47392
G1 X167.274 Y126.493 E130.52048
G1 X167.093 Y126.088 E130.5677
G1 X166.853 Y125.717 E130.61472
G1 X166.562 Y125.388 E130.66147
G1 X166.224 Y125.102 E130.7086
G1 X165.845 Y124.873 E130.75573
G1 X165.442 Y124.702 E130.80232
G1 X165.011 Y124.593 E130.84964
G1 X164.573 Y124.549 E130.89649
G1 X164.131 Y124.571 E130.94359
G1 X163.696 Y124.659 E130.99083
G1 X163.285 Y124.809 E131.03739
G1 X162.899 Y125.02 E131.08421
G1 X162.545 Y125.288 E131.13147
G1 X162.238 Y125.602 E131.17821
G1 X161.978 Y125.966 E131.22582
G1 X161.778 Y126.358 E131.27266
G1 X161.638 Y126.772 E131.31917
G1 X161.563 Y127.211 E131.36657
G1 X161.551 Y127.649 E131.41321
G1 X161.604 Y128.079 E131.45932
G1 X161.728 Y128.516 E131.50767
G1 X161.911 Y128.92 E131.55487
G1 X162.151 Y129.287 E131.60154
G1 X162.438 Y129.613 E131.64777
G1 X162.785 Y129.903 E131.6959
G0 F6000 X163.251 Y129.25
;TYPE:WALL-OUTER
G1 F900 X163.52 Y129.413 E131.72938
G1 X163.819 Y129.539 E131.76391
G1 X164.132 Y129.617 E131.79824
G1 X164.451 Y129.649 E131.83236
G1 X164.77 Y129.633 E131.86636
G1 X165.086 Y129.569 E131.90067
G1 X165.389 Y129.457 E131.93506
G1 X165.668 Y129.305 E131.96887
G1 X165.925 Y129.11 E132.00321
G1 X166.147 Y128.882 E132.03708
G1 X166.336 Y128.618 E132.07163
G1 X166.482 Y128.334 E132.10562
G1 X166.584 Y128.031 E132.13965
G1 X166.639 Y127.711 E132.17421
G1 X166.648 Y127.392 E132.20817
G1 X166.607 Y127.075 E132.24219
G1 X166.52 Y126.766 E132.27636
G1 X166.388 Y126.471 E132.31075
G1 X166.214 Y126.202 E132.34485
G1 X166.001 Y125.961 E132.37908
G1 X165.756 Y125.754 E132.41322
G1 X165.48 Y125.587 E132.44756
G1 X165.186 Y125.462 E132.48156
G1 X164.873 Y125.383 E132.51592
G1 X164.553 Y125.351 E132.55014
G1 X164.231 Y125.367 E132.58446
G1 X163.914 Y125.431 E132.61888
G1 X163.616 Y125.54 E132.65265
G1 X163.334 Y125.694 E132.68685
G1 X163.075 Y125.89 E132.72142
G1 X162.853 Y126.117 E132.75521
G1 X162.664 Y126.382 E132.78985
G1 X162.517 Y126.67 E132.82427
G1 X162.416 Y126.969 E132.85786
G1 X162.361 Y127.29 E132.89252
G1 X162.352 Y127.611 E132.9267
G1 X162.39 Y127.92 E132.95983
G1 X162.481 Y128.24 E132.99524
G1 X162.614 Y128.533 E133.02949
G1 X162.79 Y128.802 E133.0637
G1 X162.998 Y129.039 E133.09727
G1 X163.251 Y129.25 E133.13233
G0 F6000 X162.74 Y129.966
G1 F1500 E131.43233
G0 F6000 X132.5 Y130.59
G0 X132.5 Y133.665
G0 X135.165 Y117.273
G0 X132.13 Y117.273
G0 X132.5 Y120.2
;TYPE:WALL-INNER
G1 F1500 E133.13233
G1 F900 X149.5 Y120.2 E134.94168
G1 X149.5 Y104.2 E136.6446
G1 X132.5 Y104.2 E138.45395
G1 X132.5 Y120.2 E140.15687
G0 F6000 X133.3 Y119.4
G1 F900 X148.7 Y119.4 E141.79593
G1 X148.7 Y105 E143.32856
G1 X133.3 Y105 E144.96761
G1 X133.3 Y119.4 E146.50024
G0 F6000 X133.6 Y118.6
G0 X134.1 Y118.6
;TYPE:WALL-OUTER
G1 F900 X147.9 Y118.6 E147.96901
G1 X147.9 Y105.8 E149.33134
G1 X134.1 Y105.8 E150.80011
G1 X134.1 Y118.6 E152.16245
G1 F1500 E150.46245
G0 F6000 X133.6 Y118.6
G0 X132.11 Y119.478
G0 X127.913 Y118.302
G0 X122.404 Y119.478
;TYPE:WALL-INNER
G1 F1500 E152.16245
G1 F900 X122.821 Y119.498 E152.20688
G1 X123.219 Y119.497 E152.24924
G1 X123.617 Y119.477 E152.29165
G1 X123.998 Y119.438 E152.33242
G1 X124.404 Y119.376 E152.37613
G1 X124.78 Y119.3 E152.41696
G1 X125.183 Y119.197 E152.46123
G1 X125.554 Y119.083 E152.50254
G1 X125.945 Y118.939 E152.54688
G1 X126.307 Y118.784 E152.5888
G1 X126.667 Y118.611 E152.63131
G1 X127.002 Y118.426 E152.67204
G1 X127.341 Y118.22 E152.71426
G1 X127.684 Y117.985 E152.75851
G1 X128.005 Y117.742 E152.80136
G1 X128.31 Y117.483 E152.84395
G1 X128.6 Y117.213 E152.88612
G1 X128.876 Y116.929 E152.92827
G1 X129.128 Y116.645 E152.96868
G1 X129.38 Y116.328 E153.01178
G1 X129.62 Y115.992 E153.05573
G1 X129.838 Y115.654 E153.09853
G1 X130.036 Y115.306 E153.14115
G1 X130.215 Y114.956 E153.18299
G1 X130.373 Y114.608 E153.22367
G1 X130.518 Y114.235 E153.26626
G1 X130.644 Y113.86 E153.30836
G1 X130.754 Y113.474 E153.35108
G1 X130.846 Y113.066 E153.3956
G1 X130.915 Y112.668 E153.43859
G1 X130.961 Y112.275 E153.4807
G1 X130.991 Y111.882 E153.52265
G1 X131 Y111.5 E153.56332
G1 X130.991 Y111.101 E153.6058
G1 X130.96 Y110.703 E153.64829
G1 X130.911 Y110.309 E153.69054
G1 X130.841 Y109.914 E153.73324
G1 X130.753 Y109.525 E153.77569
G1 X130.645 Y109.141 E153.81814
G1 X130.518 Y108.765 E153.86038
G1 X130.372 Y108.392 E153.90302
G1 X130.208 Y108.029 E153.94541
G1 X130.027 Y107.675 E153.98773
G1 X129.827 Y107.326 E154.03054
G1 X129.61 Y106.993 E154.07284
G1 X129.378 Y106.669 E154.11526
G1 X129.127 Y106.356 E154.15796
G1 X128.865 Y106.059 E154.20011
G1 X128.589 Y105.775 E154.24226
G1 X128.294 Y105.501 E154.28511
G1 X127.986 Y105.244 E154.3278
G1 X127.669 Y105.003 E154.37019
G1 X127.341 Y104.78 E154.4124
G1 X127 Y104.571 E154.45497
G1 X126.651 Y104.381 E154.49726
G1 X126.291 Y104.206 E154.53986
G1 X125.922 Y104.053 E154.58238
G1 X125.551 Y103.917 E154.62444
G1 X125.167 Y103.799 E154.66719
G1 X124.78 Y103.7 E154.70971
G1 X124.387 Y103.621 E154.75237
G1 X123.993 Y103.562 E154.79477
G1 X123.598 Y103.522 E154.83703
G1 X123.2 Y103.502 E154.87944
G1 X122.8 Y103.502 E154.92202
G1 X122.402 Y103.522 E154.96443
G1 X122.007 Y103.562 E155.00669
G1 X121.613 Y103.621 E155.04909
G1 X121.22 Y103.7 E155.09175
G1 X120.817 Y103.803 E155.13602
G1 X120.445 Y103.917 E155.17743
G1 X120.061 Y104.06 E155.22105
G1 X119.71 Y104.206 E155.26151
G1 X119.349 Y104.381 E155.30421
G1 X118.999 Y104.571 E155.34659
G1 X118.66 Y104.78 E155.38898
G1 X118.33 Y105.003 E155.43137
G1 X117.992 Y105.261 E155.47663
G1 X117.692 Y105.515 E155.51846
G1 X117.415 Y105.772 E155.55868
G1 X117.136 Y106.058 E155.6012
G1 X116.872 Y106.356 E155.64358
G1 X116.621 Y106.671 E155.68644
G1 X116.38 Y107.008 E155.73054
G1 X116.162 Y107.345 E155.77326
G1 X115.966 Y107.689 E155.8154
G1 X115.791 Y108.029 E155.8561
G1 X115.619 Y108.412 E155.90078
G1 X115.481 Y108.768 E155.94142
G1 X115.448 Y108.866 E155.95242
G1 X115.288 Y108.631 E155.96062
G1 X114.984 Y108.269 E155.99345
G1 X114.645 Y107.938 E156.04388
G1 X114.273 Y107.641 E156.09454
G1 X113.878 Y107.386 E156.14458
G1 X113.455 Y107.168 E156.19523
G1 X113.012 Y106.995 E156.24585
G1 X112.559 Y106.867 E156.29595
G1 X112.092 Y106.784 E156.34643
G1 X111.617 Y106.749 E156.39713
G1 X111.145 Y106.761 E156.44738
G1 X110.671 Y106.82 E156.49822
G1 X110.201 Y106.93 E156.54959
G1 X109.755 Y107.081 E156.59971
G1 X109.335 Y107.271 E156.64877
G1 X108.921 Y107.508 E156.69954
G1 X108.53 Y107.79 E156.75085
G1 X108.182 Y108.098 E156.80031
G1 X107.857 Y108.447 E156.85107
