;FLAVOR:Marlin
;TIME:1424
;Filament used: 2.65637m
;Layer height: 0.32
;MINX:60.5
;MINY:93
;MINZ:0.32
;MAXX:159.5
;MAXY:127
;MAXZ:15.04
;Generated with Cura_SteamEngine 4.13.1
M140 S70
M105
M190 S70
M104 S240
M105
M109 S240
M82 ;absolute extrusion mode
; Ender 3 Custom Start G-code
G92 E0 ; Reset Extruder
G28 ; Home all axes
G29 ; Auto bed-level (BL-Touch)
G1 Z2.0 F3000 ; Move Z Axis up little to prevent scratching of Heat Bed
G1 X0.1 Y20 Z0.3 F5000.0 ; Move to start position
G1 X0.1 Y200.0 Z0.3 F1500.0 E15 ; Draw the first line
G1 X0.4 Y200.0 Z0.3 F5000.0 ; Move to side a little
G1 X0.4 Y20 Z0.3 F1500.0 E30 ; Draw the second line
G92 E0 ; Reset Extruder
G1 Z2.0 F3000 ; Move Z Axis up little to prevent scratching of Heat Bed
G1 X5 Y20 Z0.3 F5000.0 ; Move over to prevent blob squish
G92 E0
G92 E0
G1 F1500 E-1.7
;LAYER_COUNT:47
;LAYER:0
M107
G0 F6000 X65.895 Y95.47 Z0.32
;TYPE:SKIRT
G1 F1500 E0
G1 F900 X66.548 Y95.034 E0.08357
G1 X66.736 Y94.917 E0.10714
G1 X67.588 Y94.434 E0.21137
G1 X68.476 Y94.022 E0.31556
G1 X69.138 Y93.769 E0.39099
G1 X69.328 Y93.703 E0.4124
G1 X70.266 Y93.42 E0.51668
G1 X71.224 Y93.214 E0.62097
G1 X71.778 Y93.132 E0.68058
G1 X72.01 Y93.103 E0.70546
G1 X73.325 Y93.011 E0.84576
G1 X74.192 Y93 E0.93805
G1 X89.949 Y93 E2.6151
G1 X91.252 Y93.005 E2.75378
G1 X91.87 Y93 E2.81956
G1 X128.349 Y93 E6.70211
G1 X129.652 Y93.005 E6.84079
G1 X130.27 Y93 E6.90657
G1 X145.975 Y93.001 E8.57809
G1 X146.653 Y93.011 E8.65026
G1 X147.63 Y93.066 E8.75441
G1 X147.837 Y93.086 E8.77654
G1 X148.807 Y93.22 E8.88076
G1 X149.764 Y93.432 E8.98509
G1 X150.317 Y93.594 E9.04642
G1 X150.553 Y93.669 E9.07278
G1 X151.474 Y94.003 E9.17705
G1 X152.364 Y94.412 E9.2813
G1 X153.185 Y94.871 E9.38141
G1 X153.381 Y94.991 E9.40587
G1 X154.195 Y95.536 E9.51013
G1 X154.961 Y96.146 E9.61435
G1 X155.6 Y96.74 E9.7072
G1 X155.75 Y96.89 E9.72978
G1 X156.414 Y97.61 E9.83402
G1 X157.017 Y98.382 E9.93828
G1 X157.363 Y98.891 E10.00379
G1 X157.485 Y99.081 E10.02782
G1 X157.98 Y99.926 E10.13205
G1 X158.404 Y100.809 E10.23631
G1 X158.663 Y101.46 E10.31088
G1 X158.738 Y101.666 E10.33421
G1 X159.035 Y102.599 E10.43842
G1 X159.255 Y103.554 E10.54272
G1 X159.367 Y104.262 E10.61902
G1 X159.394 Y104.475 E10.64187
G1 X159.488 Y105.801 E10.78335
G1 X159.499 Y106.521 E10.85999
G1 X159.5 Y113.293 E11.58075
G1 X159.489 Y114.158 E11.67282
G1 X159.428 Y115.2 E11.78392
G1 X159.405 Y115.426 E11.80809
G1 X159.266 Y116.396 E11.91239
G1 X159.049 Y117.351 E12.01662
G1 X158.824 Y118.086 E12.09843
G1 X158.752 Y118.297 E12.12216
G1 X158.398 Y119.211 E12.22648
G1 X157.971 Y120.092 E12.33068
G1 X157.595 Y120.744 E12.41079
G1 X157.476 Y120.936 E12.43483
G1 X156.926 Y121.747 E12.53912
G1 X156.312 Y122.51 E12.64336
G1 X155.735 Y123.126 E12.73319
G1 X155.574 Y123.286 E12.75735
G1 X154.851 Y123.947 E12.86161
G1 X154.077 Y124.548 E12.96591
G1 X153.504 Y124.932 E13.03933
G1 X153.318 Y125.049 E13.06271
G1 X152.469 Y125.536 E13.16688
G1 X151.507 Y125.983 E13.27979
G1 X151.444 Y126.009 E13.28704
G1 X150.155 Y126.457 E13.43228
G1 X149.955 Y126.514 E13.45441
G1 X149.003 Y126.744 E13.55865
G1 X147.903 Y126.91 E13.67706
G1 X147.739 Y126.927 E13.6946
G1 X146.658 Y126.99 E13.80985
G1 X145.808 Y127 E13.90033
G1 X130.051 Y127 E15.57738
G1 X128.748 Y126.995 E15.71606
G1 X128.13 Y127 E15.78184
G1 X91.651 Y127 E19.66439
G1 X90.348 Y126.995 E19.80307
G1 X89.73 Y127 E19.86885
G1 X74.025 Y126.999 E21.54037
G1 X73.347 Y126.989 E21.61254
G1 X72.364 Y126.934 E21.71733
G1 X72.158 Y126.914 E21.73936
G1 X71.188 Y126.779 E21.84359
G1 X70.232 Y126.566 E21.94783
G1 X69.711 Y126.415 E22.00557
G1 X69.473 Y126.34 E22.03213
G1 X68.552 Y126.008 E22.13633
G1 X67.66 Y125.601 E22.24068
G1 X66.753 Y125.091 E22.35143
G1 X66.558 Y124.97 E22.37585
G1 X65.747 Y124.42 E22.48015
G1 X64.984 Y123.806 E22.58438
G1 X64.427 Y123.287 E22.66541
G1 X64.272 Y123.133 E22.68867
G1 X63.606 Y122.414 E22.79298
G1 X63.001 Y121.644 E22.8972
G1 X62.568 Y121.003 E22.97953
G1 X62.443 Y120.804 E23.00454
G1 X61.957 Y119.954 E23.10875
G1 X61.541 Y119.067 E23.21303
G1 X61.281 Y118.393 E23.28991
G1 X61.214 Y118.202 E23.31146
G1 X60.928 Y117.265 E23.41573
G1 X60.719 Y116.308 E23.51998
G1 X60.632 Y115.732 E23.58198
G1 X60.605 Y115.518 E23.60494
G1 X60.512 Y114.19 E23.74663
G1 X60.5 Y113.256 E23.84605
G1 X60.501 Y106.531 E24.5618
G1 X60.511 Y105.836 E24.63578
G1 X60.574 Y104.772 E24.74922
G1 X60.597 Y104.55 E24.77298
G1 X60.738 Y103.581 E24.8772
G1 X60.957 Y102.626 E24.98148
G1 X61.191 Y101.869 E25.06581
G1 X61.267 Y101.649 E25.09058
G1 X61.624 Y100.737 E25.19482
G1 X62.055 Y99.857 E25.29911
G1 X62.48 Y99.132 E25.38856
G1 X62.595 Y98.951 E25.41138
G1 X63.154 Y98.146 E25.51569
G1 X63.777 Y97.39 E25.61995
G1 X64.239 Y96.901 E25.69155
G1 X64.403 Y96.737 E25.71624
G1 X65.123 Y96.073 E25.82048
G1 X65.895 Y95.47 E25.92474
G0 F6000 X66.414 Y96.083
G1 F900 X66.97 Y95.713 E25.99582
G1 X67.158 Y95.596 E26.01939
G1 X67.982 Y95.13 E26.12015
G1 X68.842 Y94.736 E26.22083
G1 X69.401 Y94.525 E26.28442
G1 X69.591 Y94.459 E26.30583
G1 X70.497 Y94.187 E26.40651
G1 X71.877 Y93.925 E26.55601
G1 X72.109 Y93.896 E26.58089
G1 X73.337 Y93.811 E26.7119
G1 X74.192 Y93.8 E26.80291
G1 X89.946 Y93.8 E28.47965
G1 X91.255 Y93.805 E28.61897
G1 X91.876 Y93.8 E28.68506
G1 X128.346 Y93.8 E32.56666
G1 X129.655 Y93.805 E32.70598
G1 X130.276 Y93.8 E32.77207
G1 X145.963 Y93.801 E34.44168
G1 X146.641 Y93.811 E34.51385
G1 X147.553 Y93.862 E34.61107
G1 X147.76 Y93.882 E34.6332
G1 X148.697 Y94.013 E34.7339
G1 X149.62 Y94.222 E34.83462
G1 X150.075 Y94.356 E34.8851
G1 X150.311 Y94.431 E34.91146
G1 X151.2 Y94.756 E35.0122
G1 X152.059 Y95.154 E35.11297
G1 X152.767 Y95.553 E35.19946
G1 X152.963 Y95.673 E35.22392
G1 X153.749 Y96.201 E35.3247
G1 X154.487 Y96.793 E35.4254
G1 X155.035 Y97.305 E35.50522
G1 X155.185 Y97.455 E35.5278
G1 X155.825 Y98.152 E35.62851
G1 X156.404 Y98.901 E35.72927
G1 X156.689 Y99.324 E35.78355
G1 X156.811 Y99.514 E35.80759
G1 X157.289 Y100.331 E35.90833
G1 X157.695 Y101.185 E36.00897
G1 X157.911 Y101.733 E36.07166
G1 X157.986 Y101.939 E36.095
G1 X158.272 Y102.842 E36.19581
G1 X158.481 Y103.765 E36.29654
G1 X158.573 Y104.363 E36.36093
G1 X158.6 Y104.576 E36.38378
G1 X158.688 Y105.813 E36.51577
G1 X158.7 Y106.704 E36.61061
G1 X158.699 Y113.455 E37.32914
G1 X158.689 Y114.147 E37.4028
G1 X158.632 Y115.119 E37.50643
G1 X158.609 Y115.345 E37.5306
G1 X158.474 Y116.282 E37.63136
G1 X158.26 Y117.203 E37.732
G1 X158.067 Y117.828 E37.80162
G1 X157.995 Y118.039 E37.82535
G1 X157.652 Y118.921 E37.92607
G1 X157.235 Y119.771 E38.02684
G1 X156.915 Y120.322 E38.09465
G1 X156.796 Y120.514 E38.11869
G1 X156.264 Y121.297 E38.21945
G1 X155.667 Y122.032 E38.32023
G1 X155.171 Y122.558 E38.39718
G1 X155.01 Y122.718 E38.42133
G1 X154.311 Y123.356 E38.52206
G1 X153.561 Y123.933 E38.62277
G1 X153.078 Y124.254 E38.6845
G1 X152.892 Y124.371 E38.70789
G1 X152.071 Y124.841 E38.80857
G1 X151.202 Y125.244 E38.91052
G1 X151.139 Y125.27 E38.91778
G1 X149.936 Y125.688 E39.05332
G1 X149.736 Y125.745 E39.07546
G1 X148.815 Y125.966 E39.17627
G1 X147.821 Y126.114 E39.28323
G1 X147.657 Y126.131 E39.30077
G1 X146.647 Y126.19 E39.40845
G1 X145.808 Y126.2 E39.49776
G1 X130.054 Y126.2 E41.17449
G1 X128.745 Y126.195 E41.31381
G1 X128.124 Y126.2 E41.37991
G1 X91.654 Y126.2 E45.2615
G1 X90.345 Y126.195 E45.40082
G1 X89.724 Y126.2 E45.46692
G1 X74.037 Y126.199 E47.13653
G1 X73.359 Y126.189 E47.20869
G1 X72.442 Y126.138 E47.30644
G1 X72.236 Y126.118 E47.32847
G1 X71.298 Y125.986 E47.42929
G1 X69.952 Y125.652 E47.57689
G1 X69.714 Y125.577 E47.60345
G1 X68.824 Y125.255 E47.70419
G1 X67.965 Y124.859 E47.80486
G1 X67.175 Y124.412 E47.90147
G1 X66.98 Y124.291 E47.92589
G1 X66.197 Y123.758 E48.0267
G1 X65.463 Y123.162 E48.12734
G1 X64.991 Y122.719 E48.19623
G1 X64.836 Y122.565 E48.21949
G1 X64.194 Y121.87 E48.32019
G1 X63.612 Y121.124 E48.42089
G1 X63.246 Y120.577 E48.49094
G1 X63.121 Y120.378 E48.51595
G1 X62.652 Y119.556 E48.61668
G1 X62.254 Y118.698 E48.71734
G1 X62.036 Y118.128 E48.7823
G1 X61.969 Y117.937 E48.80384
G1 X61.694 Y117.032 E48.90451
G1 X61.496 Y116.106 E49.00529
G1 X61.426 Y115.632 E49.05629
G1 X61.399 Y115.418 E49.07925
G1 X61.312 Y114.178 E49.21155
G1 X61.3 Y113.256 E49.30969
G1 X61.301 Y106.543 E50.02417
G1 X61.311 Y105.848 E50.09814
G1 X61.37 Y104.855 E50.20402
G1 X61.393 Y104.633 E50.22777
G1 X61.53 Y103.696 E50.32856
G1 X61.746 Y102.775 E50.42924
G1 X61.947 Y102.13 E50.50115
G1 X62.023 Y101.91 E50.52592
G1 X62.369 Y101.029 E50.62666
G1 X62.789 Y100.181 E50.72738
G1 X63.156 Y99.561 E50.80406
G1 X63.271 Y99.38 E50.82689
G1 X63.811 Y98.603 E50.92759
G1 X64.416 Y97.875 E51.02834
G1 X64.804 Y97.466 E51.08834
G1 X64.968 Y97.302 E51.11303
G1 X65.665 Y96.662 E51.21374
G1 X66.414 Y96.083 E51.3145
G0 F6000 X66.93 Y96.697
G1 F900 X67.393 Y96.392 E51.37351
G1 X67.581 Y96.275 E51.39708
G1 X68.376 Y95.828 E51.49415
G1 X69.206 Y95.452 E51.59113
G1 X69.663 Y95.281 E51.64306
G1 X69.853 Y95.215 E51.66447
G1 X70.727 Y94.954 E51.76155
G1 X71.976 Y94.719 E51.89682
G1 X72.208 Y94.69 E51.9217
G1 X73.348 Y94.611 E52.04333
G1 X74.192 Y94.6 E52.13316
G1 X89.943 Y94.6 E53.80958
G1 X91.258 Y94.605 E53.94954
G1 X91.882 Y94.6 E54.01596
G1 X128.343 Y94.6 E57.89659
G1 X129.658 Y94.605 E58.03655
G1 X130.282 Y94.6 E58.10296
G1 X145.951 Y94.601 E59.77065
G1 X146.629 Y94.611 E59.84282
G1 X147.476 Y94.658 E59.93311
G1 X147.683 Y94.678 E59.95524
G1 X148.586 Y94.806 E60.05231
G1 X149.833 Y95.118 E60.18913
G1 X150.069 Y95.193 E60.21548
G1 X150.925 Y95.508 E60.31256
G1 X151.75 Y95.895 E60.40955
G1 X152.349 Y96.235 E60.48286
G1 X152.545 Y96.355 E60.50732
G1 X153.302 Y96.865 E60.60446
G1 X154.01 Y97.439 E60.70147
G1 X154.469 Y97.871 E60.76856
G1 X154.619 Y98.021 E60.79114
G1 X155.235 Y98.694 E60.88824
G1 X156.016 Y99.756 E61.02855
G1 X156.138 Y99.946 E61.05258
G1 X156.597 Y100.734 E61.14964
G1 X156.985 Y101.559 E61.24667
G1 X157.159 Y102.007 E61.29782
G1 X157.234 Y102.213 E61.32115
G1 X157.509 Y103.083 E61.41827
G1 X157.705 Y103.973 E61.51526
G1 X157.779 Y104.463 E61.568
G1 X157.806 Y104.676 E61.59086
G1 X157.888 Y105.825 E61.71346
G1 X157.9 Y106.704 E61.80702
G1 X157.899 Y113.443 E62.52427
G1 X157.889 Y114.135 E62.59793
G1 X157.837 Y115.038 E62.6942
G1 X157.814 Y115.264 E62.71837
G1 X157.682 Y116.166 E62.8154
G1 X157.471 Y117.054 E62.91254
G1 X157.31 Y117.57 E62.97007
G1 X157.238 Y117.781 E62.9938
G1 X156.906 Y118.63 E63.09083
G1 X156.5 Y119.447 E63.18793
G1 X156.235 Y119.901 E63.24388
G1 X156.116 Y120.093 E63.26792
G1 X155.602 Y120.846 E63.36495
G1 X155.024 Y121.552 E63.46206
G1 X154.607 Y121.991 E63.52651
G1 X154.446 Y122.151 E63.55066
G1 X153.772 Y122.765 E63.6477
G1 X153.046 Y123.317 E63.74477
G1 X152.652 Y123.577 E63.79501
G1 X152.466 Y123.694 E63.8184
G1 X151.674 Y124.145 E63.9154
G1 X150.896 Y124.504 E64.0066
G1 X150.833 Y124.53 E64.01385
G1 X149.716 Y124.919 E64.13974
G1 X149.516 Y124.976 E64.16188
G1 X148.629 Y125.187 E64.25892
G1 X147.738 Y125.319 E64.35478
G1 X147.574 Y125.336 E64.37233
G1 X146.637 Y125.39 E64.47222
G1 X145.808 Y125.4 E64.56046
G1 X130.057 Y125.4 E66.23688
G1 X128.742 Y125.395 E66.37684
G1 X128.118 Y125.4 E66.44325
G1 X91.657 Y125.4 E70.32389
G1 X90.342 Y125.395 E70.46385
G1 X89.718 Y125.4 E70.53026
G1 X74.049 Y125.399 E72.19795
G1 X73.371 Y125.389 E72.27012
G1 X72.519 Y125.341 E72.36095
G1 X72.313 Y125.321 E72.38297
G1 X71.41 Y125.193 E72.48004
G1 X70.192 Y124.889 E72.61366
G1 X69.954 Y124.814 E72.64021
G1 X69.097 Y124.502 E72.73728
G1 X68.271 Y124.116 E72.83432
G1 X67.597 Y123.732 E72.91688
G1 X67.402 Y123.611 E72.94131
G1 X66.649 Y123.097 E73.03834
G1 X65.943 Y122.518 E73.13552
G1 X65.555 Y122.152 E73.19229
G1 X65.4 Y121.998 E73.21555
G1 X64.782 Y121.327 E73.31264
G1 X64.225 Y120.605 E73.40969
G1 X63.923 Y120.152 E73.46764
G1 X63.798 Y119.953 E73.49265
G1 X63.348 Y119.16 E73.58969
G1 X62.968 Y118.331 E73.68675
G1 X62.791 Y117.864 E73.73991
G1 X62.724 Y117.673 E73.76145
G1 X62.46 Y116.8 E73.85852
G1 X62.22 Y115.532 E73.99587
G1 X62.193 Y115.318 E74.01883
G1 X62.112 Y114.167 E74.14164
G1 X62.1 Y113.256 E74.23861
G1 X62.101 Y106.554 E74.95192
G1 X62.111 Y105.859 E75.0259
G1 X62.165 Y104.937 E75.12419
G1 X62.188 Y104.715 E75.14795
G1 X62.322 Y103.813 E75.245
G1 X62.534 Y102.926 E75.34207
G1 X62.703 Y102.391 E75.40178
G1 X62.779 Y102.171 E75.42656
G1 X63.114 Y101.323 E75.5236
G1 X63.523 Y100.508 E75.62065
G1 X63.831 Y99.99 E75.68479
G1 X63.946 Y99.809 E75.70762
G1 X64.468 Y99.061 E75.8047
G1 X65.054 Y98.362 E75.90178
G1 X65.37 Y98.032 E75.95041
G1 X65.534 Y97.868 E75.97509
G1 X66.207 Y97.252 E76.0722
G1 X66.93 Y96.697 E76.1692
G1 F1500 E74.4692
G0 F6000 X90.04 Y104.339
G0 X94.935 Y108.6
G0 X95.2 Y108.6
G1 F1500 E76.1692
G1 F900 X124.8 Y108.6 E79.3196
G1 X124.8 Y111.4 E79.61761
G1 X95.2 Y111.4 E82.76801
G1 X95.2 Y108.6 E83.06603
G0 F6000 X94.4 Y107.8
G1 F900 X125.6 Y107.8 E86.38672
G1 X125.6 Y112.2 E86.85502
G1 X94.4 Y112.2 E90.17571
G1 X94.4 Y107.8 E90.64401
G0 F6000 X93.6 Y107
G1 F900 X126.4 Y107 E94.135
G1 X126.4 Y113 E94.77359
G1 X93.6 Y113 E98.26458
G1 X93.6 Y107 E98.90317
G0 F6000 X92.8 Y106.2
G1 F900 X127.2 Y106.2 E102.56445
G1 X127.2 Y113.8 E103.37333
G1 X92.8 Y113.8 E107.03461
G1 X92.8 Y106.2 E107.8435
G0 F6000 X92 Y105.4
G1 F900 X128 Y105.4 E111.67506
G1 X128 Y114.6 E112.65424
G1 X92 Y114.6 E116.48581
G1 X92 Y105.4 E117.46499
G1 F1500 E115.76499
G0 F6000 X96 Y108.335
G0 X96 Y109.4
;TYPE:SUPPORT
G1 F1500 E117.46499
G1 F900 X124 Y109.4 E120.4451
G1 X124 Y110.6 E120.57281
G1 X96 Y110.6 E123.55292
G1 X96 Y109.4 E123.68064
G0 F6000 X100 Y109.56
G1 F900 X100 Y110.44 E123.7743
G0 F6000 X104 Y110.44
G1 F900 X104 Y109.56 E123.86796
G0 F6000 X108 Y109.56
G1 F900 X108 Y110.44 E123.96162
G0 F6000 X112 Y110.44
G1 F900 X112 Y109.56 E124.05528
G0 F6000 X116 Y109.56
G1 F900 X116 Y110.44 E124.14894
G0 F6000 X120 Y110.44
G1 F900 X120 Y109.56 E124.24261
G1 F1500 E122.54261
;MESH:CaseHolder-Body.stl
G0 F6000 X120 Y108.335
G0 X94.947 Y108.347
G0 X90.665 Y109.56
G0 X89.18 Y109.56
G0 X87.618 Y112.618
G0 X78.55 Y112.767
;TYPE:WALL-INNER
G1 F1500 E124.24261
G1 F900 X79.181 Y112.435 E124.31849
G1 X79.714 Y111.961 E124.39441
G1 X80.121 Y111.375 E124.47035
G1 X80.372 Y110.708 E124.5462
G1 X80.459 Y110 E124.62212
G1 X80.372 Y109.292 E124.69804
G1 X80.121 Y108.625 E124.77389
G1 X79.714 Y108.039 E124.84983
G1 X79.181 Y107.565 E124.92574
G1 X78.55 Y107.233 E125.00163
G1 X77.857 Y107.063 E125.07757
G1 X77.143 Y107.063 E125.15357
G1 X76.45 Y107.233 E125.22951
G1 X75.819 Y107.565 E125.3054
G1 X75.286 Y108.039 E125.38131
G1 X74.879 Y108.625 E125.45725
G1 X74.628 Y109.292 E125.5331
G1 X74.541 Y110 E125.60902
G1 X74.628 Y110.708 E125.68494
G1 X74.879 Y111.375 E125.76079
G1 X75.286 Y111.961 E125.83673
G1 X75.819 Y112.435 E125.91265
G1 X76.45 Y112.767 E125.98853
G1 X77.143 Y112.937 E126.06448
G1 X77.857 Y112.937 E126.14047
G1 X78.55 Y112.767 E126.21642
G0 F6000 X78.264 Y112.013
;TYPE:WALL-OUTER
G1 F900 X78.723 Y111.772 E126.27159
G1 X79.111 Y111.427 E126.32685
G1 X79.407 Y111 E126.38215
G1 X79.59 Y110.515 E126.43732
G1 X79.653 Y110 E126.49254
G1 X79.59 Y109.485 E126.54777
G1 X79.407 Y109 E126.60294
G1 X79.111 Y108.573 E126.65824
G1 X78.723 Y108.228 E126.7135
G1 X78.264 Y107.987 E126.76867
G1 X77.76 Y107.863 E126.82391
G1 X77.24 Y107.863 E126.87926
G1 X76.736 Y107.987 E126.9345
G1 X76.277 Y108.228 E126.98968
G1 X75.889 Y108.573 E127.04494
G1 X75.593 Y109 E127.10024
G1 X75.41 Y109.485 E127.15541
G1 X75.347 Y110 E127.21063
G1 X75.41 Y110.515 E127.26585
G1 X75.593 Y111 E127.32102
G1 X75.889 Y111.427 E127.37632
G1 X76.277 Y111.772 E127.43158
G1 X76.736 Y112.013 E127.48676
G1 X77.24 Y112.137 E127.542
G1 X77.76 Y112.137 E127.59734
G1 X78.264 Y112.013 E127.65259
G0 F6000 X78.575 Y112.835
G0 X76.579 Y112.427
G0 X76.026 Y112.135
G0 X75.558 Y111.72
G0 X75.201 Y111.205
G0 X74.981 Y110.62
G0 X74.919 Y110.118
G0 X75.25 Y107
;TYPE:WALL-INNER
G1 F900 X74.683 Y107.504 E127.73333
G1 X74.5 Y107.768 E127.76752
G1 X74.5 Y107 E127.80675
G1 X75.25 Y107 E127.8352
G0 F6000 X74.904 Y110
G0 X75.25 Y113
G1 F900 X74.5 Y113 E127.91503
G1 X74.5 Y112.232 E127.99677
G1 X74.683 Y112.496
G1 X75.25 Y113 E128.01101
G0 F6000 X88 Y113
G1 F900 X79.75 Y113 E128.88908
