;FLAVOR:Marlin
;TIME:9752
;Filament used: 20.4987m
;Layer height: 0.32
;MINX:28.457
;MINY:37.457
;MINZ:0.32
;MAXX:191.543
;MAXY:182.543
;MAXZ:13.12
;Generated with Cura_SteamEngine 4.13.1
M140 S70
M105
M190 S70
M104 S240
M105
M109 S240
M82 ;absolute extrusion mode
; Ender 3 Custom Start G-code
G92 E0 ; Reset Extruder
G28 ; Home all axes
G29 ; Auto bed-level (BL-Touch)
G1 Z2.0 F3000 ; Move Z Axis up little to prevent scratching of Heat Bed
G1 X0.1 Y20 Z0.3 F5000.0 ; Move to start position
G1 X0.1 Y200.0 Z0.3 F1500.0 E15 ; Draw the first line
G1 X0.4 Y200.0 Z0.3 F5000.0 ; Move to side a little
G1 X0.4 Y20 Z0.3 F1500.0 E30 ; Draw the second line
G92 E0 ; Reset Extruder
G1 Z2.0 F3000 ; Move Z Axis up little to prevent scratching of Heat Bed
G1 X5 Y20 Z0.3 F5000.0 ; Move over to prevent blob squish
G92 E0
G92 E0
G1 F1500 E-1.7
;LAYER_COUNT:41
;LAYER:0
M107
G0 F6000 X32.74 Y40.576 Z0.32
;TYPE:SKIRT
G1 F1500 E0
G1 F900 X33.502 Y39.96 E0.10429
G1 X34.311 Y39.408 E0.20853
G1 X35.016 Y39.001 E0.29517
G1 X35.211 Y38.897 E0.31869
G1 X36.093 Y38.471 E0.42294
G1 X37.008 Y38.12 E0.52724
G1 X37.947 Y37.843 E0.63144
G1 X38.545 Y37.71 E0.69664
G1 X39.512 Y37.557 E0.80084
G1 X40.673 Y37.479 E0.92469
G1 X41.739 Y37.459 E1.03817
G1 X41.964 Y37.457 E1.06211
G1 X178.307 Y37.458 E15.57343
G1 X179.237 Y37.472 E15.67242
G1 X180.215 Y37.528 E15.77669
G1 X181.185 Y37.663 E15.88092
G1 X182.27 Y37.913 E15.99943
G1 X182.474 Y37.97 E16.02197
G1 X183.406 Y38.272 E16.12624
G1 X184.31 Y38.648 E16.23045
G1 X185.181 Y39.098 E16.33479
G1 X186.012 Y39.617 E16.43907
G1 X186.844 Y40.24 E16.5497
G1 X187.009 Y40.375 E16.57239
G1 X187.741 Y41.025 E16.67658
G1 X188.418 Y41.734 E16.78091
G1 X189.034 Y42.495 E16.88512
G1 X189.587 Y43.304 E16.98942
G1 X189.943 Y43.912 E17.0644
G1 X190.044 Y44.097 E17.08684
G1 X190.477 Y44.975 E17.19103
G1 X190.838 Y45.886 E17.29533
G1 X191.204 Y47.149 E17.43528
G1 X191.216 Y47.201 E17.44096
G1 X191.397 Y48.163 E17.54515
G1 X191.499 Y49.138 E17.64948
G1 X191.521 Y49.669 E17.70605
G1 X191.541 Y50.712 E17.81708
G1 X191.543 Y50.942 E17.84156
G1 X191.541 Y169.444 E30.45401
G1 X191.531 Y170.165 E30.53076
G1 X191.477 Y171.144 E30.63511
G1 X191.344 Y172.114 E30.73932
G1 X191.212 Y172.75 E30.80845
G1 X191.155 Y172.992 E30.83491
G1 X190.892 Y173.936 E30.93921
G1 X190.553 Y174.855 E31.04347
G1 X190.139 Y175.743 E31.14775
G1 X189.655 Y176.594 E31.25194
G1 X188.834 Y177.751 E31.40294
G1 X188.7 Y177.918 E31.42573
G1 X188.057 Y178.656 E31.52991
G1 X187.355 Y179.34 E31.63422
G1 X186.6 Y179.964 E31.73847
G1 X185.796 Y180.524 E31.84276
G1 X184.956 Y181.013 E31.94621
G1 X184.752 Y181.121 E31.97077
G1 X183.868 Y181.544 E32.07508
G1 X182.953 Y181.893 E32.1793
G1 X182.012 Y182.167 E32.28362
G1 X181.455 Y182.29 E32.34433
G1 X180.488 Y182.443 E32.44853
G1 X179.327 Y182.521 E32.57238
G1 X178.262 Y182.541 E32.68575
G1 X178.037 Y182.543 E32.70969
G1 X41.546 Y182.542 E47.23676
G1 X41.024 Y182.535 E47.29233
G1 X40.228 Y182.498 E47.37714
G1 X39.928 Y182.474 E47.40917
G1 X38.956 Y182.356 E47.51338
G1 X37.996 Y182.159 E47.61769
G1 X37.056 Y181.885 E47.7219
G1 X36.51 Y181.686 E47.78375
G1 X36.321 Y181.612 E47.80535
G1 X35.424 Y181.218 E47.90962
G1 X34.562 Y180.752 E48.01392
G1 X33.742 Y180.217 E48.11812
G1 X32.967 Y179.618 E48.22237
G1 X32.244 Y178.957 E48.32664
G1 X31.534 Y178.187 E48.43811
G1 X31.353 Y177.973 E48.46794
G1 X30.751 Y177.2 E48.57222
G1 X30.215 Y176.381 E48.6764
G1 X29.747 Y175.52 E48.7807
G1 X29.351 Y174.624 E48.88496
G1 X29.058 Y173.793 E48.97874
G1 X29.02 Y173.671 E48.99234
G1 X28.767 Y172.724 E49.09667
G1 X28.592 Y171.76 E49.20095
G1 X28.479 Y170.322 E49.35447
G1 X28.459 Y169.233 E49.47039
G1 X28.457 Y169.013 E49.49381
G1 X28.459 Y50.489 E62.10861
G1 X28.469 Y49.811 E62.18078
G1 X28.524 Y48.833 E62.28503
G1 X28.658 Y47.863 E62.38925
G1 X28.835 Y47.042 E62.47864
G1 X28.894 Y46.809 E62.50422
G1 X29.173 Y45.87 E62.60848
G1 X29.528 Y44.957 E62.71274
G1 X29.956 Y44.076 E62.81699
G1 X30.454 Y43.233 E62.9212
G1 X31.244 Y42.15 E63.06387
G1 X31.38 Y41.984 E63.08671
G1 X32.032 Y41.252 E63.19104
G1 X32.74 Y40.576 E63.29523
G0 F6000 X33.317 Y41.135
G1 F900 X34.057 Y40.545 E63.39596
G1 X34.844 Y40.019 E63.49671
G1 X35.392 Y39.707 E63.56382
G1 X35.587 Y39.603 E63.58734
G1 X36.441 Y39.193 E63.68817
G1 X37.325 Y38.857 E63.78882
G1 X38.661 Y38.502 E63.93595
G1 X38.701 Y38.494 E63.94029
G1 X39.636 Y38.348 E64.04101
G1 X40.688 Y38.279 E64.15322
G1 X41.754 Y38.259 E64.2667
G1 X41.964 Y38.257 E64.28905
G1 X178.49 Y38.259 E78.81984
G1 X179.224 Y38.271 E78.89798
G1 X180.169 Y38.327 E78.99873
G1 X181.106 Y38.462 E79.09949
G1 X182.055 Y38.683 E79.20319
G1 X182.259 Y38.74 E79.22574
G1 X183.159 Y39.033 E79.32648
G1 X184.031 Y39.401 E79.42721
G1 X184.869 Y39.841 E79.52795
G1 X185.666 Y40.35 E79.6286
G1 X186.337 Y40.859 E79.71824
G1 X186.502 Y40.994 E79.74093
G1 X187.209 Y41.623 E79.84164
G1 X187.86 Y42.31 E79.94238
G1 X188.45 Y43.05 E80.04311
G1 X188.976 Y43.837 E80.14386
G1 X189.24 Y44.295 E80.20012
G1 X189.341 Y44.48 E80.22255
G1 X189.759 Y45.329 E80.32327
G1 X190.104 Y46.21 E80.42397
G1 X190.424 Y47.329 E80.54784
G1 X190.436 Y47.381 E80.55352
G1 X190.61 Y48.311 E80.65422
G1 X190.721 Y49.684 E80.80083
G1 X190.741 Y50.727 E80.91186
G1 X190.743 Y50.942 E80.93475
G1 X190.741 Y169.433 E93.54603
G1 X190.731 Y170.154 E93.62278
G1 X190.678 Y171.099 E93.72351
G1 X190.545 Y172.036 E93.82424
G1 X190.434 Y172.567 E93.88198
G1 X190.377 Y172.809 E93.90844
G1 X190.121 Y173.72 E94.00915
G1 X189.789 Y174.606 E94.10986
G1 X189.384 Y175.461 E94.21055
G1 X188.908 Y176.279 E94.31128
G1 X188.211 Y177.25 E94.43849
G1 X188.077 Y177.417 E94.46128
G1 X187.454 Y178.13 E94.56206
G1 X186.773 Y178.787 E94.66277
G1 X186.039 Y179.385 E94.76353
G1 X185.257 Y179.918 E94.86426
G1 X184.581 Y180.306 E94.94722
G1 X184.377 Y180.414 E94.97178
G1 X183.523 Y180.821 E95.07247
G1 X182.637 Y181.155 E95.17325
G1 X181.334 Y181.499 E95.31668
G1 X181.299 Y181.506 E95.32048
G1 X180.364 Y181.652 E95.4212
G1 X179.312 Y181.721 E95.53341
G1 X178.247 Y181.741 E95.64678
G1 X178.037 Y181.743 E95.66913
G1 X41.557 Y181.742 E110.19503
G1 X41.035 Y181.735 E110.25059
G1 X40.292 Y181.7 E110.32976
G1 X39.992 Y181.676 E110.36179
G1 X39.053 Y181.561 E110.46248
G1 X38.126 Y181.367 E110.56328
G1 X36.802 Y180.941 E110.71131
G1 X36.613 Y180.867 E110.73291
G1 X35.747 Y180.485 E110.83365
G1 X34.916 Y180.031 E110.93443
G1 X34.127 Y179.509 E111.03512
G1 X33.385 Y178.922 E111.13582
G1 X32.694 Y178.275 E111.23657
G1 X32.145 Y177.671 E111.32345
G1 X31.964 Y177.457 E111.35328
G1 X31.383 Y176.709 E111.45408
G1 X30.869 Y175.915 E111.55475
G1 X30.423 Y175.08 E111.65551
G1 X30.049 Y174.211 E111.7562
G1 X29.822 Y173.555 E111.83008
G1 X29.784 Y173.433 E111.84368
G1 X29.541 Y172.518 E111.94444
G1 X29.376 Y171.586 E112.04518
G1 X29.279 Y170.308 E112.18159
G1 X29.259 Y169.219 E112.29751
G1 X29.257 Y169.013 E112.31944
G1 X29.259 Y50.501 E124.93296
G1 X29.269 Y49.823 E125.00513
G1 X29.323 Y48.878 E125.10587
G1 X29.457 Y47.941 E125.20661
G1 X29.611 Y47.239 E125.28311
G1 X29.67 Y47.006 E125.30869
G1 X29.941 Y46.099 E125.40944
G1 X30.287 Y45.218 E125.51018
G1 X30.707 Y44.37 E125.6109
G1 X31.196 Y43.56 E125.7116
G1 X31.863 Y42.657 E125.83108
G1 X31.999 Y42.491 E125.85392
G1 X32.629 Y41.785 E125.95463
G1 X33.317 Y41.135 E126.05537
G0 F6000 X33.892 Y41.695
G1 F900 X34.609 Y41.132 E126.1524
G1 X35.769 Y40.413 E126.29765
G1 X35.964 Y40.309 E126.32117
G1 X36.787 Y39.915 E126.41829
G1 X37.641 Y39.595 E126.51535
G1 X38.818 Y39.287 E126.64484
G1 X38.858 Y39.279 E126.64918
G1 X39.76 Y39.139 E126.74633
G1 X40.703 Y39.079 E126.8469
G1 X41.964 Y39.057 E126.98113
G1 X178.477 Y39.059 E141.51054
G1 X179.211 Y39.071 E141.58868
G1 X180.121 Y39.126 E141.68571
G1 X181.023 Y39.261 E141.78278
G1 X181.84 Y39.454 E141.87213
G1 X182.044 Y39.511 E141.89467
G1 X182.91 Y39.794 E141.99164
G1 X183.749 Y40.153 E142.08876
G1 X184.553 Y40.583 E142.18581
G1 X185.316 Y41.083 E142.2829
G1 X185.831 Y41.478 E142.35198
G1 X185.996 Y41.613 E142.37467
G1 X186.675 Y42.221 E142.47167
G1 X187.299 Y42.886 E142.56873
G1 X187.863 Y43.603 E142.66582
G1 X188.538 Y44.678 E142.80092
G1 X188.639 Y44.863 E142.82336
G1 X189.041 Y45.682 E142.92046
G1 X189.369 Y46.533 E143.01753
G1 X189.645 Y47.508 E143.12538
G1 X189.657 Y47.56 E143.13106
G1 X189.823 Y48.457 E143.22815
G1 X189.921 Y49.7 E143.36085
G1 X189.941 Y50.743 E143.47188
G1 X189.943 Y50.942 E143.49306
G1 X189.941 Y169.422 E156.10318
G1 X189.931 Y170.143 E156.17992
G1 X189.878 Y171.054 E156.27705
G1 X189.655 Y172.383 E156.42047
G1 X189.598 Y172.625 E156.44693
G1 X189.35 Y173.503 E156.54404
G1 X189.026 Y174.355 E156.64105
G1 X188.629 Y175.176 E156.73812
G1 X188.162 Y175.959 E156.83515
G1 X187.587 Y176.75 E156.93923
G1 X187.453 Y176.917 E156.96202
G1 X186.851 Y177.602 E157.05908
G1 X186.192 Y178.232 E157.15611
G1 X185.48 Y178.803 E157.25325
G1 X184.721 Y179.308 E157.35028
G1 X184.207 Y179.599 E157.41315
G1 X184.003 Y179.707 E157.43771
G1 X183.179 Y180.098 E157.53479
G1 X182.324 Y180.416 E157.63188
G1 X181.177 Y180.714 E157.75801
G1 X181.142 Y180.721 E157.76181
G1 X180.24 Y180.861 E157.85896
G1 X179.297 Y180.921 E157.95953
G1 X178.037 Y180.943 E158.09365
G1 X41.568 Y180.942 E172.61838
G1 X41.046 Y180.935 E172.67394
G1 X40.356 Y180.903 E172.74746
G1 X40.056 Y180.879 E172.77949
G1 X39.151 Y180.766 E172.87656
G1 X38.259 Y180.575 E172.97365
G1 X37.093 Y180.196 E173.10414
G1 X36.904 Y180.122 E173.12574
G1 X36.071 Y179.753 E173.22271
G1 X35.272 Y179.312 E173.31984
G1 X34.516 Y178.803 E173.41684
G1 X33.807 Y178.229 E173.51393
G1 X33.151 Y177.596 E173.61096
G1 X32.755 Y177.154 E173.67412
G1 X32.574 Y176.94 E173.70395
G1 X32.017 Y176.219 E173.80092
G1 X31.524 Y175.451 E173.89805
G1 X31.101 Y174.644 E173.99503
G1 X30.75 Y173.802 E174.09212
G1 X30.586 Y173.317 E174.14661
G1 X30.548 Y173.195 E174.16021
G1 X30.315 Y172.313 E174.2573
G1 X30.16 Y171.414 E174.3544
G1 X30.079 Y170.293 E174.47402
G1 X30.057 Y169.013 E174.61027
G1 X30.059 Y50.513 E187.22252
G1 X30.069 Y49.835 E187.29469
G1 X30.123 Y48.924 E187.39182
G1 X30.255 Y48.022 E187.48884
G1 X30.386 Y47.435 E187.55285
G1 X30.445 Y47.202 E187.57844
G1 X30.708 Y46.329 E187.67548
G1 X31.045 Y45.482 E187.7725
G1 X31.456 Y44.668 E187.86955
G1 X31.937 Y43.893 E187.96663
G1 X32.482 Y43.164 E188.06351
G1 X32.618 Y42.998 E188.08635
G1 X33.226 Y42.319 E188.18335
G1 X33.892 Y41.695 E188.28049
G1 F1500 E186.58049
;MESH:Lid.stl
G0 F6000 X40.789 Y48.813
G0 X41.272 Y50.271
G0 X42.457 Y168.543
;TYPE:WALL-INNER
G1 F1500 E188.28049
G1 F900 X42.458 Y51.457 E200.74224
G1 X177.543 Y51.458 E215.11966
G1 X177.542 Y168.543 E227.5813
G1 X42.457 Y168.543 E241.95873
G0 F6000 X41.657 Y169.343
G1 F900 X41.658 Y50.657 E254.59077
G1 X178.343 Y50.658 E269.13848
G1 X178.342 Y169.343 E281.77042
G1 X41.657 Y169.343 E296.31813
G0 F6000 X41.327 Y169.673
G0 X40.884 Y170.08
;TYPE:WALL-OUTER
G1 F900 X40.857 Y169.985 E296.32865
G1 X40.858 Y50.005 E309.09841
G1 X40.922 Y49.883 E309.11307
G1 X41.012 Y49.857 E309.12304
G1 X178.995 Y49.858 E323.80891
G1 X179.117 Y49.922 E323.82357
G1 X179.143 Y50.008 E323.83313
G1 X179.142 Y169.992 E336.60332
G1 X179.078 Y170.117 E336.61827
G1 X178.995 Y170.143 E336.62753
G1 X41.019 Y170.143 E351.31265
G1 X40.884 Y170.08 E351.3285
G0 F6000 X41.327 Y169.673
G0 X42.768 Y167.752
G0 X43.247 Y167.753
;TYPE:SKIN
G1 F900 X43.248 Y52.247 E363.62209
G1 X176.753 Y52.248 E377.83135
G1 X176.752 Y167.753 E390.12483
G1 X43.247 Y167.753 E404.33409
G0 F6000 X44.112 Y167.432
G1 F900 X43.566 Y166.886 E404.41627
G0 F6000 X42.768 Y166.885
G0 X42.768 Y165.754
G0 X43.566 Y165.755
G1 F900 X45.244 Y167.432 E404.66877
G0 F6000 X45.244 Y168.233
G0 X46.375 Y168.233
G0 X46.375 Y167.432
G1 F900 X43.566 Y164.623 E405.09157
G0 F6000 X42.768 Y164.622
G0 X42.768 Y163.491
G0 X43.566 Y163.492
G1 F900 X47.506 Y167.432 E405.68461
G0 F6000 X47.506 Y168.233
G0 X48.638 Y168.233
G0 X48.638 Y167.432
G1 F900 X43.566 Y162.36 E406.44804
G0 F6000 X42.768 Y162.359
G0 X42.768 Y161.228
G0 X43.566 Y161.229
G1 F900 X49.769 Y167.432 E407.38171
G0 F6000 X49.769 Y168.233
G0 X50.901 Y168.233
G0 X50.901 Y167.432
G1 F900 X43.566 Y160.098 E408.48568
G0 F6000 X42.768 Y160.097
G0 X42.768 Y158.965
G0 X43.566 Y158.966
G1 F900 X52.032 Y167.432 E409.75997
G0 F6000 X52.032 Y168.233
G0 X53.163 Y168.233
G0 X53.163 Y167.432
G1 F900 X43.566 Y157.835 E411.20449
G0 F6000 X42.768 Y157.834
G0 X42.768 Y156.703
G0 X43.566 Y156.704
G1 F900 X54.295 Y167.432 E412.81933
G0 F6000 X54.295 Y168.233
G0 X55.426 Y168.233
G0 X55.426 Y167.432
G1 F900 X43.566 Y155.572 E414.60447
G0 F6000 X42.768 Y155.571
G0 X42.768 Y154.44
G0 X43.566 Y154.441
G1 F900 X56.557 Y167.432 E416.55985
G0 F6000 X56.557 Y168.233
G0 X57.689 Y168.233
G0 X57.689 Y167.432
G1 F900 X43.566 Y153.309 E418.68562
G0 F6000 X42.768 Y153.308
G0 X42.768 Y152.177
G0 X43.566 Y152.178
G1 F900 X58.82 Y167.432 E420.98163
G0 F6000 X58.82 Y168.233
G0 X59.952 Y168.233
G0 X59.952 Y167.432
G1 F900 X43.566 Y151.047 E423.44794
G0 F6000 X42.768 Y151.046
G0 X42.768 Y149.914
G0 X43.566 Y149.915
G1 F900 X61.083 Y167.432 E426.08457
G0 F6000 X61.083 Y168.233
G0 X62.214 Y168.233
G0 X62.214 Y167.432
G1 F900 X43.566 Y148.784 E428.89143
G0 F6000 X42.768 Y148.783
G0 X42.768 Y147.652
G0 X43.566 Y147.653
G1 F900 X63.346 Y167.432 E431.86861
G0 F6000 X63.346 Y168.233
G0 X64.477 Y168.233
G0 X64.477 Y167.432
G1 F900 X43.566 Y146.521 E435.01609
G0 F6000 X42.768 Y146.52
G0 X42.768 Y145.389
G0 X43.566 Y145.39
G1 F900 X65.608 Y167.432 E438.33382
G0 F6000 X65.608 Y168.233
G0 X66.74 Y168.233
G0 X66.74 Y167.432
G1 F900 X43.566 Y144.258 E441.82192
G0 F6000 X42.768 Y144.257
G0 X42.768 Y143.126
G0 X43.566 Y143.127
G1 F900 X67.871 Y167.432 E445.48027
G0 F6000 X67.871 Y168.233
G0 X69.003 Y168.233
G0 X69.003 Y167.432
G1 F900 X43.566 Y141.996 E449.30892
G0 F6000 X42.768 Y141.995
G0 X42.768 Y140.863
G0 X43.566 Y140.864
G1 F900 X70.134 Y167.432 E453.30789
G0 F6000 X70.134 Y168.233
G0 X71.265 Y168.233
G0 X71.265 Y167.432
G1 F900 X43.566 Y139.733 E457.4771
G0 F6000 X42.768 Y139.732
G0 X42.768 Y138.601
G0 X43.566 Y138.602
G1 F900 X72.397 Y167.432 E461.81661
G0 F6000 X72.397 Y168.233
G0 X73.528 Y168.233
G0 X73.528 Y167.432
G1 F900 X43.566 Y137.47 E466.32644
G0 F6000 X42.768 Y137.469
G0 X42.768 Y136.338
G0 X43.566 Y136.339
G1 F900 X74.659 Y167.432 E471.0065
G0 F6000 X74.659 Y168.233
G0 X75.791 Y168.233
G0 X75.791 Y167.432
G1 F900 X43.566 Y135.208 E475.85687
G0 F6000 X42.768 Y135.207
G0 X42.768 Y134.075
G0 X43.566 Y134.076
G1 F900 X76.922 Y167.432 E480.87756
G0 F6000 X76.922 Y168.233
G0 X78.053 Y168.233
G0 X78.053 Y167.432
G1 F900 X43.566 Y132.945 E486.06848
G0 F6000 X42.768 Y132.944
G0 X42.768 Y131.812
G0 X43.566 Y131.813
G1 F900 X79.185 Y167.432 E491.42978
G0 F6000 X79.185 Y168.233
G0 X80.316 Y168.233
G0 X80.316 Y167.432
G1 F900 X43.566 Y130.682 E496.96133
G0 F6000 X42.768 Y130.681
G0 X42.768 Y129.55
G0 X43.566 Y129.551
G1 F900 X81.448 Y167.432 E502.66318
G0 F6000 X81.448 Y168.233
G0 X82.579 Y168.233
G0 X82.579 Y167.432
G1 F900 X43.566 Y128.419 E508.53535
G0 F6000 X42.768 Y128.418
G0 X42.768 Y127.287
G0 X43.566 Y127.288
G1 F900 X83.71 Y167.432 E514.57775
G0 F6000 X83.71 Y168.233
G0 X84.842 Y168.233
G0 X84.842 Y167.432
G1 F900 X43.566 Y126.157 E520.79046
G0 F6000 X42.768 Y126.156
G0 X42.768 Y125.024
G0 X43.566 Y125.025
G1 F900 X85.973 Y167.432 E527.17349
G0 F6000 X85.973 Y168.233
G0 X87.104 Y168.233
G0 X87.104 Y167.432
G1 F900 X43.566 Y123.894 E533.72675
G0 F6000 X42.768 Y123.893
G0 X42.768 Y122.761
G0 X43.566 Y122.762
G1 F900 X88.236 Y167.432 E540.4504
G0 F6000 X88.236 Y168.233
G0 X89.367 Y168.233
G0 X89.367 Y167.432
G1 F900 X43.566 Y121.631 E547.34428
G0 F6000 X42.768 Y121.63
G0 X42.768 Y120.499
G0 X43.566 Y120.5
G1 F900 X90.499 Y167.432 E554.40848
G0 F6000 X90.499 Y168.233
G0 X91.63 Y168.233
G0 X91.63 Y167.432
G1 F900 X43.566 Y119.368 E561.64298
G0 F6000 X42.768 Y119.367
G0 X42.768 Y118.236
G0 X43.566 Y118.237
G1 F900 X92.761 Y167.432 E569.04772
G0 F6000 X92.761 Y168.233
G0 X93.893 Y168.233
G0 X93.893 Y167.432
G1 F900 X43.566 Y117.106 E576.62278
G0 F6000 X42.768 Y117.105
G0 X42.768 Y115.973
G0 X43.566 Y115.974
G1 F900 X95.024 Y167.432 E584.36814
G0 F6000 X95.024 Y168.233
