;FLAVOR:Marlin
;TIME:20215
;Filament used: 40.5531m
;Layer height: 0.32
;MINX:29.5
;MINY:37.458
;MINZ:0.32
;MAXX:190.043
;MAXY:182.543
;MAXZ:46.08
;Generated with Cura_SteamEngine 4.13.1
M140 S70
M105
M190 S70
M104 S240
M105
M109 S240
M82 ;absolute extrusion mode
; Ender 3 Custom Start G-code
G92 E0 ; Reset Extruder
G28 ; Home all axes
G29 ; Auto bed-level (BL-Touch)
G1 Z2.0 F3000 ; Move Z Axis up little to prevent scratching of Heat Bed
G1 X0.1 Y20 Z0.3 F5000.0 ; Move to start position
G1 X0.1 Y200.0 Z0.3 F1500.0 E15 ; Draw the first line
G1 X0.4 Y200.0 Z0.3 F5000.0 ; Move to side a little
G1 X0.4 Y20 Z0.3 F1500.0 E30 ; Draw the second line
G92 E0 ; Reset Extruder
G1 Z2.0 F3000 ; Move Z Axis up little to prevent scratching of Heat Bed
G1 X5 Y20 Z0.3 F5000.0 ; Move over to prevent blob squish
G92 E0
G92 E0
G1 F1500 E-1.7
;LAYER_COUNT:144
;LAYER:0
M107
G0 F6000 X34.171 Y39.973 Z0.32
;TYPE:SKIRT
G1 F1500 E0
G1 F900 X34.97 Y39.406 E0.10428
G1 X35.812 Y38.906 E0.2085
G1 X36.692 Y38.476 E0.31275
G1 X37.605 Y38.12 E0.41704
G1 X38.543 Y37.839 E0.52126
G1 X39.502 Y37.636 E0.62559
G1 X40.473 Y37.512 E0.72978
G1 X41.173 Y37.472 E0.8044
G1 X41.493 Y37.463 E0.83847
G1 X41.83 Y37.458 E0.87434
G1 X176.793 Y37.458 E15.23879
G1 X177.619 Y37.468 E15.3267
G1 X178.597 Y37.521 E15.43095
G1 X179.568 Y37.654 E15.53526
G1 X180.28 Y37.804 E15.6127
G1 X180.565 Y37.873 E15.64391
G1 X181.507 Y38.142 E15.74818
G1 X182.423 Y38.487 E15.85236
G1 X183.309 Y38.906 E15.95667
G1 X184.157 Y39.396 E16.06091
G1 X184.799 Y39.831 E16.14345
G1 X184.964 Y39.951 E16.16516
G1 X185.732 Y40.559 E16.26941
G1 X186.448 Y41.228 E16.37371
G1 X187.107 Y41.953 E16.47799
G1 X187.705 Y42.729 E16.58226
G1 X188.459 Y43.942 E16.73427
G1 X188.557 Y44.123 E16.75617
G1 X188.987 Y45.003 E16.86042
G1 X189.345 Y45.915 E16.9647
G1 X189.627 Y46.853 E17.06894
G1 X189.832 Y47.811 E17.17321
G1 X189.928 Y48.488 E17.24599
G1 X189.959 Y48.762 E17.27534
G1 X190.034 Y49.939 E17.40086
G1 X190.043 Y50.669 E17.47856
G1 X190.042 Y169.438 E30.11944
G1 X190.032 Y170.157 E30.19597
G1 X189.978 Y171.135 E30.30022
G1 X189.845 Y172.106 E30.40453
G1 X189.604 Y173.171 E30.52075
G1 X189.535 Y173.422 E30.54845
G1 X189.237 Y174.355 E30.6527
G1 X188.864 Y175.261 E30.75698
G1 X188.418 Y176.133 E30.86122
G1 X187.661 Y177.309 E31.01007
G1 X187.54 Y177.475 E31.03194
G1 X186.931 Y178.243 E31.13626
G1 X186.262 Y178.958 E31.24047
G1 X185.536 Y179.616 E31.34476
G1 X184.76 Y180.213 E31.44896
G1 X183.536 Y180.971 E31.60219
G1 X183.356 Y181.068 E31.62396
G1 X182.475 Y181.497 E31.72825
G1 X181.562 Y181.853 E31.83255
G1 X180.624 Y182.133 E31.93674
G1 X179.665 Y182.336 E32.04107
G1 X178.998 Y182.43 E32.11276
G1 X178.721 Y182.461 E32.14242
G1 X177.549 Y182.534 E32.2674
G1 X176.797 Y182.543 E32.34745
G1 X42.029 Y182.541 E46.69113
G1 X41.351 Y182.531 E46.7633
G1 X40.373 Y182.476 E46.86756
G1 X39.403 Y182.342 E46.97178
G1 X38.446 Y182.13 E47.0761
G1 X37.511 Y181.84 E47.18029
G1 X36.602 Y181.474 E47.28459
G1 X35.726 Y181.036 E47.38883
G1 X34.888 Y180.528 E47.49313
G1 X34.095 Y179.953 E47.59738
G1 X33.043 Y179.017 E47.74725
G1 X32.36 Y178.278 E47.85435
G1 X31.757 Y177.506 E47.95861
G1 X31.219 Y176.687 E48.0629
G1 X30.75 Y175.827 E48.16716
G1 X30.352 Y174.932 E48.27141
G1 X30.029 Y174.007 E48.37569
G1 X29.782 Y173.059 E48.47996
G1 X29.614 Y172.094 E48.58421
G1 X29.514 Y170.858 E48.71619
G1 X29.505 Y170.545 E48.74952
G1 X29.5 Y170.2 E48.78624
G1 X29.501 Y49.982 E61.58134
G1 X29.511 Y49.293 E61.65468
G1 X29.565 Y48.315 E61.75893
G1 X29.699 Y47.344 E61.86325
G1 X29.912 Y46.388 E61.9675
G1 X30.201 Y45.452 E62.07176
G1 X30.567 Y44.543 E62.17605
G1 X31.005 Y43.667 E62.28029
G1 X31.513 Y42.83 E62.3845
G1 X32.087 Y42.036 E62.48878
G1 X32.725 Y41.293 E62.59301
G1 X33.421 Y40.603 E62.69732
G1 X34.171 Y39.973 E62.80157
G0 F6000 X34.943 Y40.394
G1 F900 X35.732 Y39.872 E62.90226
G1 X36.563 Y39.419 E63.00299
G1 X37.429 Y39.037 E63.10373
G1 X38.324 Y38.73 E63.20444
G1 X39.242 Y38.499 E63.30519
G1 X40.176 Y38.347 E63.4059
G1 X41.195 Y38.271 E63.51466
G1 X41.515 Y38.262 E63.54873
G1 X41.83 Y38.258 E63.58226
G1 X176.793 Y38.258 E77.9467
G1 X177.608 Y38.268 E78.03345
G1 X178.553 Y38.321 E78.13419
G1 X179.49 Y38.453 E78.2349
G1 X180.091 Y38.581 E78.3003
G1 X180.376 Y38.65 E78.33151
G1 X181.286 Y38.912 E78.4323
G1 X182.17 Y39.249 E78.53299
G1 X183.023 Y39.66 E78.63376
G1 X183.838 Y40.141 E78.73449
G1 X184.329 Y40.478 E78.79787
G1 X184.494 Y40.598 E78.81958
G1 X185.235 Y41.187 E78.92033
G1 X185.924 Y41.836 E79.02107
G1 X186.555 Y42.54 E79.12169
G1 X187.125 Y43.296 E79.22246
G1 X187.755 Y44.323 E79.3507
G1 X187.853 Y44.504 E79.3726
G1 X188.268 Y45.355 E79.47337
G1 X188.61 Y46.237 E79.57406
G1 X188.876 Y47.146 E79.67486
G1 X189.064 Y48.073 E79.77553
G1 X189.133 Y48.578 E79.82978
G1 X189.164 Y48.852 E79.85913
G1 X189.234 Y49.95 E79.97623
G1 X189.243 Y50.669 E80.05276
G1 X189.242 Y169.427 E92.69246
G1 X189.232 Y170.146 E92.76899
G1 X189.179 Y171.091 E92.86973
G1 X189.046 Y172.028 E92.97046
G1 X188.832 Y172.959 E93.07213
G1 X188.763 Y173.21 E93.09984
G1 X188.474 Y174.111 E93.20054
G1 X188.11 Y174.984 E93.30121
G1 X187.673 Y175.824 E93.40199
G1 X187.015 Y176.838 E93.53064
G1 X186.894 Y177.004 E93.55251
G1 X186.305 Y177.745 E93.65325
G1 X185.655 Y178.433 E93.75399
G1 X184.949 Y179.064 E93.85477
G1 X184.193 Y179.633 E93.95548
G1 X183.156 Y180.267 E94.08484
G1 X182.976 Y180.364 E94.1066
G1 X182.125 Y180.777 E94.20728
G1 X181.242 Y181.117 E94.30799
G1 X180.333 Y181.381 E94.40873
G1 X179.405 Y181.568 E94.50949
G1 X178.909 Y181.635 E94.56276
G1 X178.632 Y181.666 E94.59242
G1 X177.538 Y181.734 E94.70908
G1 X176.797 Y181.743 E94.78796
G1 X42.041 Y181.741 E109.13036
G1 X41.363 Y181.731 E109.20253
G1 X40.418 Y181.677 E109.30328
G1 X39.481 Y181.543 E109.40402
G1 X38.559 Y181.331 E109.50471
G1 X37.658 Y181.042 E109.60542
G1 X36.784 Y180.678 E109.70618
G1 X35.945 Y180.241 E109.80687
G1 X35.145 Y179.735 E109.90762
G1 X34.391 Y179.163 E110.00834
G1 X33.589 Y178.433 E110.12377
G1 X32.949 Y177.736 E110.22448
G1 X32.37 Y176.987 E110.32524
G1 X31.856 Y176.193 E110.42591
G1 X31.411 Y175.357 E110.52671
G1 X31.038 Y174.488 E110.62736
G1 X30.74 Y173.59 E110.72806
G1 X30.519 Y172.669 E110.82887
G1 X30.376 Y171.734 E110.92954
G1 X30.314 Y170.835 E111.02545
G1 X30.305 Y170.522 E111.05878
G1 X30.3 Y170.2 E111.09305
G1 X30.301 Y49.993 E123.88697
G1 X30.311 Y49.304 E123.96031
G1 X30.365 Y48.36 E124.06095
G1 X30.498 Y47.423 E124.16168
G1 X30.71 Y46.5 E124.26247
G1 X30.999 Y45.599 E124.36318
G1 X31.363 Y44.726 E124.46385
G1 X31.8 Y43.886 E124.56463
G1 X32.305 Y43.086 E124.66532
G1 X32.877 Y42.332 E124.76605
G1 X33.51 Y41.629 E124.86673
G1 X34.2 Y40.981 E124.96748
G1 X34.943 Y40.394 E125.06826
G0 F6000 X34.977 Y41.375
G1 F900 X35.711 Y40.834 E125.16531
G1 X36.49 Y40.359 E125.26242
G1 X37.307 Y39.954 E125.35947
G1 X38.157 Y39.622 E125.45659
G1 X39.032 Y39.367 E125.55359
G1 X39.926 Y39.188 E125.65063
G1 X41.218 Y39.071 E125.78871
G1 X41.538 Y39.062 E125.82278
G1 X41.83 Y39.058 E125.85386
G1 X176.793 Y39.058 E140.2183
G1 X177.597 Y39.068 E140.30388
G1 X178.508 Y39.12 E140.401
G1 X179.41 Y39.252 E140.49802
G1 X179.903 Y39.359 E140.55171
G1 X180.188 Y39.428 E140.58292
G1 X181.064 Y39.681 E140.67997
G1 X181.915 Y40.01 E140.77708
G1 X182.733 Y40.412 E140.87408
G1 X183.858 Y41.125 E141.01584
G1 X184.023 Y41.245 E141.03756
G1 X184.736 Y41.813 E141.13458
G1 X185.397 Y42.442 E141.23169
G1 X186 Y43.126 E141.32874
G1 X186.541 Y43.86 E141.42579
G1 X187.052 Y44.704 E141.5308
G1 X187.15 Y44.885 E141.55271
G1 X187.548 Y45.705 E141.64972
G1 X187.873 Y46.557 E141.74677
G1 X188.123 Y47.435 E141.84394
G1 X188.338 Y48.668 E141.97715
G1 X188.369 Y48.942 E142.0065
G1 X188.434 Y49.962 E142.11528
G1 X188.443 Y50.669 E142.19053
G1 X188.442 Y169.416 E154.82906
G1 X188.432 Y170.135 E154.9056
G1 X188.379 Y171.045 E155.00261
G1 X188.247 Y171.947 E155.09964
G1 X188.061 Y172.747 E155.18705
G1 X187.992 Y172.998 E155.21476
G1 X187.712 Y173.866 E155.31183
G1 X187.357 Y174.706 E155.40889
G1 X186.93 Y175.511 E155.50588
G1 X186.368 Y176.367 E155.61486
G1 X186.247 Y176.533 E155.63673
G1 X185.678 Y177.246 E155.73381
G1 X185.049 Y177.906 E155.83085
G1 X184.365 Y178.508 E155.92783
G1 X183.63 Y179.048 E156.0249
G1 X182.777 Y179.562 E156.1309
G1 X182.597 Y179.659 E156.15266
G1 X181.776 Y180.056 E156.24972
G1 X180.923 Y180.38 E156.34684
G1 X180.045 Y180.627 E156.44391
G1 X178.82 Y180.839 E156.57623
G1 X178.543 Y180.87 E156.6059
G1 X177.527 Y180.934 E156.71425
G1 X176.797 Y180.943 E156.79195
G1 X42.053 Y180.941 E171.13308
G1 X41.375 Y180.931 E171.20525
G1 X40.464 Y180.877 E171.30238
G1 X39.562 Y180.745 E171.3994
G1 X38.675 Y180.533 E171.49647
G1 X37.81 Y180.245 E171.5935
G1 X36.973 Y179.882 E171.6906
G1 X36.172 Y179.447 E171.78761
G1 X35.412 Y178.943 E171.88467
G1 X34.698 Y178.375 E171.98178
G1 X34.155 Y177.867 E172.06092
G1 X33.539 Y177.194 E172.15802
G1 X32.984 Y176.471 E172.25503
G1 X32.495 Y175.701 E172.35211
G1 X32.076 Y174.891 E172.44918
G1 X31.728 Y174.048 E172.54624
G1 X31.456 Y173.178 E172.64326
G1 X31.261 Y172.287 E172.74033
G1 X31.145 Y171.382 E172.83744
G1 X31.113 Y170.812 E172.89821
G1 X31.104 Y170.499 E172.93153
G1 X31.1 Y170.2 E172.96336
G1 X31.101 Y50.005 E185.75601
G1 X31.111 Y49.316 E185.82935
G1 X31.164 Y48.406 E185.92636
G1 X31.297 Y47.503 E186.02351
G1 X31.508 Y46.616 E186.12055
G1 X31.796 Y45.751 E186.21758
G1 X32.159 Y44.915 E186.31458
G1 X32.594 Y44.113 E186.41169
G1 X33.097 Y43.352 E186.50878
G1 X33.665 Y42.639 E186.6058
G1 X34.294 Y41.978 E186.70292
G1 X34.977 Y41.375 E186.79989
G1 F1500 E185.09989
G0 F6000 X151.089 Y77.827
G1 F1500 E186.79989
G1 F900 X151.226 Y77.65 E186.82371
G1 X151.419 Y77.562 E186.84628
G1 X151.721 Y77.612 E186.87887
G1 X151.879 Y77.765 E186.90227
G1 X151.946 Y77.972 E186.92543
G1 X151.906 Y78.186 E186.9486
G1 X151.766 Y78.359 E186.97229
G1 X151.526 Y78.445 E186.99942
G1 X151.296 Y78.397 E187.02443
G1 X151.131 Y78.249 E187.04802
G1 X151.057 Y78.046 E187.07102
G1 X151.089 Y77.827 E187.09457
G0 F6000 X150.4 Y77.414
G1 F900 X150.546 Y77.197 E187.12241
G1 X150.727 Y77.024 E187.14906
G1 X151.05 Y76.837 E187.18878
G1 X151.405 Y76.757 E187.22751
G1 X151.524 Y76.754 E187.24018
G1 X151.781 Y76.785 E187.26773
G1 X152.126 Y76.921 E187.3072
G1 X152.412 Y77.15 E187.3462
G1 X152.626 Y77.463 E187.38655
G1 X152.71 Y77.701 E187.41342
G1 X152.746 Y78.061 E187.45192
G1 X152.669 Y78.437 E187.49277
G1 X152.492 Y78.757 E187.53169
G1 X152.237 Y79.007 E187.5697
G1 X152.015 Y79.136 E187.59703
G1 X151.656 Y79.237 E187.63672
G1 X151.394 Y79.242 E187.66461
G1 X151.04 Y79.159 E187.70331
G1 X150.719 Y78.971 E187.7429
G1 X150.47 Y78.702 E187.78192
G1 X150.349 Y78.481 E187.80873
G1 X150.259 Y78.117 E187.84864
G1 X150.279 Y77.745 E187.88829
G1 X150.4 Y77.414 E187.9258
G1 F1500 E186.2258
G0 F6000 X151.524 Y145.754
G1 F1500 E187.9258
G1 F900 X151.781 Y145.785 E187.95335
G1 X152.126 Y145.921 E187.99282
G1 X152.412 Y146.15 E188.03182
G1 X152.626 Y146.463 E188.07217
G1 X152.71 Y146.701 E188.09903
G1 X152.746 Y147.061 E188.13754
G1 X152.669 Y147.437 E188.17839
G1 X152.495 Y147.752 E188.21669
G1 X152.235 Y148.008 E188.25552
G1 X152.015 Y148.136 E188.28261
G1 X151.656 Y148.237 E188.32231
G1 X151.394 Y148.242 E188.3502
G1 X151.04 Y148.159 E188.3889
G1 X150.725 Y147.976 E188.42767
G1 X150.473 Y147.706 E188.46698
G1 X150.351 Y147.485 E188.49385
G1 X150.259 Y147.117 E188.53422
G1 X150.279 Y146.745 E188.57387
G1 X150.4 Y146.414 E188.61138
G1 X150.546 Y146.197 E188.63921
G1 X150.727 Y146.024 E188.66586
G1 X151.053 Y145.836 E188.70592
G1 X151.405 Y145.757 E188.74431
G1 X151.524 Y145.754 E188.75698
G0 F6000 X151.505 Y146.555
G1 F900 X151.721 Y146.612 E188.78076
G1 X151.879 Y146.765 E188.80417
G1 X151.946 Y146.976 E188.82773
G1 X151.907 Y147.184 E188.85025
G1 X151.758 Y147.364 E188.87512
G1 X151.526 Y147.445 E188.90128
G1 X151.298 Y147.398 E188.92605
G1 X151.131 Y147.249 E188.94987
G1 X151.057 Y147.046 E188.97287
G1 X151.104 Y146.796 E188.99994
G1 X151.262 Y146.623 E189.02488
G1 X151.505 Y146.555 E189.05174
G1 F1500 E187.35174
G0 F6000 X62.412 Y147.15
G1 F1500 E189.05174
G1 F900 X62.622 Y147.457 E189.09133
G1 X62.734 Y147.816 E189.13135
G1 X62.746 Y148.067 E189.1581
G1 X62.671 Y148.429 E189.19744
G1 X62.495 Y148.752 E189.23659
G1 X62.322 Y148.938 E189.26363
G1 X62.015 Y149.136 E189.30251
G1 X61.656 Y149.237 E189.3422
G1 X61.394 Y149.242 E189.37009
G1 X61.04 Y149.159 E189.40879
G1 X60.719 Y148.971 E189.44838
G1 X60.47 Y148.702 E189.4874
G1 X60.306 Y148.364 E189.52738
G1 X60.258 Y148.103 E189.55563
G1 X60.276 Y147.763 E189.59187
G1 X60.353 Y147.51 E189.62001
G1 X60.475 Y147.29 E189.64679
G1 X60.727 Y147.024 E189.68578
G1 X61.05 Y146.837 E189.72551
G1 X61.405 Y146.757 E189.76424
G1 X61.524 Y146.754 E189.77691
G1 X61.781 Y146.785 E189.80446
G1 X62.126 Y146.921 E189.84393
G1 X62.412 Y147.15 E189.88292
G0 F6000 X61.876 Y147.761
G1 F900 X61.946 Y147.97 E189.90638
G1 X61.907 Y148.182 E189.92933
G1 X61.766 Y148.359 E189.95341
G1 X61.526 Y148.445 E189.98055
G1 X61.296 Y148.397 E190.00555
G1 X61.131 Y148.249 E190.02914
G1 X61.054 Y148.021 E190.05476
G1 X61.104 Y147.796 E190.07929
G1 X61.262 Y147.623 E190.10422
G1 X61.505 Y147.555 E190.13108
G1 X61.721 Y147.612 E190.15486
G1 X61.876 Y147.761 E190.17774
G1 F1500 E188.47774
G0 F6000 X62.746 Y78.065
G1 F1500 E190.17774
G1 F900 X62.671 Y78.429 E190.2173
G1 X62.492 Y78.757 E190.25707
G1 X62.237 Y79.007 E190.29507
G1 X62.015 Y79.136 E190.3224
G1 X61.656 Y79.237 E190.36209
G1 X61.394 Y79.242 E190.38998
G1 X61.04 Y79.159 E190.42868
G1 X60.719 Y78.971 E190.46828
G1 X60.47 Y78.702 E190.50729
G1 X60.305 Y78.36 E190.5477
G1 X60.258 Y78.103 E190.57551
G1 X60.28 Y77.746 E190.61358
G1 X60.4 Y77.414 E190.65115
G1 X60.546 Y77.197 E190.67899
G1 X60.727 Y77.024 E190.70564
G1 X61.05 Y76.837 E190.74536
G1 X61.405 Y76.757 E190.78409
G1 X61.524 Y76.754 E190.79676
G1 X61.781 Y76.785 E190.82431
G1 X62.126 Y76.921 E190.86378
G1 X62.412 Y77.15 E190.90278
G1 X62.62 Y77.453 E190.94189
G1 X62.708 Y77.688 E190.9686
G1 X62.746 Y78.065 E191.00893
G0 F6000 X61.946 Y77.972
G1 F900 X61.906 Y78.186 E191.0321
G1 X61.766 Y78.359 E191.05579
G1 X61.526 Y78.445 E191.08292
G1 X61.296 Y78.397 E191.10793
G1 X61.131 Y78.249 E191.13152
G1 X61.054 Y78.018 E191.15743
G1 X61.107 Y77.79 E191.18235
G1 X61.262 Y77.623 E191.2066
G1 X61.505 Y77.555 E191.23345
G1 X61.721 Y77.612 E191.25723
G1 X61.876 Y77.761 E191.28011
G1 X61.946 Y77.972 E191.30377
G1 F1500 E189.60377
;MESH:Case.stl
G0 F6000 X62.568 Y145.647
G0 X63.816 Y142.857
G0 X65.464 Y146.99
G0 X65.585 Y147.796
G0 X65.546 Y148.599
G0 X64.576 Y152.259
;TYPE:WALL-INNER
G1 F1500 E191.30377
G1 F900 X64.975 Y151.938 E191.35828
G1 X65.357 Y151.566 E191.41503
G1 X65.694 Y151.161 E191.47111
G1 X65.985 Y150.735 E191.52601
G1 X66.236 Y150.269 E191.58235
G1 X66.436 Y149.798 E191.63681
G1 X66.593 Y149.285 E191.69391
G1 X66.695 Y148.771 E191.74968
G1 X66.746 Y148.253 E191.80508
G1 X66.746 Y147.737 E191.86
G1 X66.694 Y147.219 E191.91541
G1 X66.59 Y146.702 E191.97154
G1 X66.434 Y146.198 E192.02769
G1 X66.227 Y145.711 E192.08401
G1 X65.976 Y145.252 E192.13969
G1 X65.681 Y144.82 E192.19537
G1 X65.347 Y144.425 E192.25042
G1 X64.968 Y144.055 E192.3068
G1 X64.565 Y143.734 E192.36163
G1 X64.115 Y143.445 E192.41855
G1 X63.656 Y143.213 E192.47329
G1 X63.164 Y143.018 E192.52962
G1 X62.656 Y142.878 E192.5857
G1 X62.142 Y142.788 E192.64124
G1 X61.624 Y142.749 E192.69653
G1 X61.107 Y142.762 E192.75157
G1 X60.578 Y142.828 E192.80831
G1 X60.066 Y142.948 E192.86428
G1 X59.578 Y143.113 E192.91911
G1 X59.094 Y143.331 E192.97561
G1 X58.64 Y143.596 E193.03156
G1 X58.217 Y143.902 E193.08712
G1 X57.829 Y144.245 E193.14224
G1 X57.475 Y144.625 E193.19752
G1 X57.161 Y145.043 E193.25316
G1 X56.883 Y145.496 E193.30973
G1 X56.66 Y145.961 E193.36461
G1 X56.479 Y146.46 E193.42111
G1 X56.35 Y146.963 E193.47638
G1 X56.274 Y147.489 E193.53294
G1 X56.248 Y148.007 E193.58814
G1 X56.274 Y148.524 E193.64324
G1 X56.353 Y149.05 E193.69985
G1 X56.484 Y149.562 E193.7561
G1 X56.666 Y150.053 E193.81183
G1 X56.889 Y150.511 E193.86605
G1 X57.164 Y150.964 E193.92245
G1 X57.478 Y151.378 E193.97776
G1 X57.843 Y151.769 E194.03469
